!!!!SEGMENT: pl-cz--ii-240--008_zeidler-jozef--stabat-mater-inflammatus.krn
!!!cenid: 18xx:310
!!!COM: Zeidler, Józef
!!!COM-rismID:
!!!CDT: ~1744-1806
!!!CNT: Polish
!!!OPR: Stabat Mater
!!!OTL: Inflammatus
!!!OMV: 008
!!!PDT: 1840
!!!AGN: Sacred
!!!SMS-siglum: PL-CZ
!!!SMS-shelfmark: II-240
!!!SMS-shelfwork: 001-008 M
!!!NIFC-rismSourceID:
!!!NIFC-islandoraID: pl-cz:33216
!!!URL-pdf-islandora: https://repozytorium.nifc.pl/islandora/object/pl-cz%3A33216/datastream/PDF/view
!!!URL-scan:
!!!ONB-nifc: UWAGA: części: Stabat Mater, Quae merebat, Quis est homo, Quis non posset, Eja Mater, Fac me vere, Virgo virginum praeclara, Inflammatus, Quando corpus morietur, Amen
!!!AIN: 2 clars 2 empty 1 organ 1 tenor 1 viola 1 violn
!!!key:
**kern	**fb	**dynam	**kern	**text	**kern	**text	**dynam	**kern	**dynam	**kern	**dynam	**kern	**dynam	**kern	**dynam	**kern	**dynam
*part8	*	*part8	*part4	*part4	*part3	*part3	*part3	*part7	*part7	*part6	*part6	*part5	*part5	*part2	*part2	*part1	*part1
*staff8	*	*	*staff4	*staff4	*staff3	*staff3	*	*staff7	*	*staff6	*	*staff5	*	*staff2	*	*staff1	*
*Iorgan	*	*	*Iempty	*	*Itenor	*	*	*Iviola	*	*Ivioln	*	*Iempty	*	*Iclars	*	*Iclars	*
*I"Organ.	*	*	*I"Bas.	*	*I"Tenor.	*	*	*I"Viola	*	*I"Violin 2-do	*	*I"Violio 1mo	*	*I"Clarinetto 2do in B♭	*	*I"Clarinetto 1mo in B♭	*
*I'Org.	*	*	*I'B	*	*I'T	*	*	*I'V-la	*	*I'V-no 2	*	*I'V-no 1	*	*I'Cl. in B♭	*	*I'Cl. in B♭	*
*group4	*	*	*group3	*	*group3	*	*	*group2	*	*group2	*	*group2	*	*group1	*	*group1	*
*clefF4	*	*	*clefF4	*	*clefC4	*	*	*clefC3	*	*clefG2	*	*clefG2	*	*clefG2	*	*clefG2	*
*	*	*	*	*	*	*	*	*	*	*	*	*	*	*ITrd1c2	*	*ITrd1c2	*
*k[b-e-]	*	*	*k[b-e-]	*	*k[b-e-]	*	*	*k[b-e-]	*	*k[b-e-]	*	*k[b-e-]	*	*k[b-e-]	*	*k[b-e-]	*
*B-:	*	*	*B-:	*	*B-:	*	*	*B-:	*	*B-:	*	*B-:	*	*B-:	*	*B-:	*
*M4/4	*	*	*M4/4	*	*M4/4	*	*	*M4/4	*	*M4/4	*	*M4/4	*	*M4/4	*	*M4/4	*
*met(c)	*	*	*met(c)	*	*met(c)	*	*	*met(c)	*	*met(c)	*	*met(c)	*	*met(c)	*	*met(c)	*
=1	=1	=1	=1	=1	=1	=1	=1	=1	=1	=1	=1	=1	=1	=1	=1	=1	=1
*8\right	*	*	*	*	*	*	*	*8\right	*	*4\right	*	*4\right	*	*	*	*	*
!	!	!	!LO:TX:a:t=Allo Solo poco	!	!	!	!	!	!	!	!	!	!	!	!	!	!
!	!	!	!	!	!LO:TX:a:t=Allo	!	!	!	!	!	!	!	!	!	!	!	!
!	!	!	!	!	!LO:TX:a:t=Solo poco	!	!	!LO:TX:a:t=Allo	!	!LO:TX:a:t=Allo	!	!LO:TX:a:t=Allo	!	!LO:TX:a:t=Allo.	!	!LO:TX:a:t=Allo	!
!LO:TX:a:t=Allo	!	!LO:HP:t=for	!	!	!	!	!	!	!LO:HP:t=for	!	!LO:HP:t=for	!LO:TX:b:t=Cres	!	!	!	!LO:TX:a:t=2	!
8B-\L	.	f	00r	.	00r	.	.	8B-\L	f	4b-\	f	4b-\	.	0r	.	0r	.
8B-\	.	.	.	.	.	.	.	8d\	.	.	.	.	.	.	.	.	.
*	*	*	*	*	*	*	*	*	*	*16\right	*	*16\right	*	*	*	*	*
8B-\	.	.	.	.	.	.	.	8d\	.	(16dd\LL	.	(16dd\LL	.	.	.	.	.
.	.	.	.	.	.	.	.	.	.	16cc\	.	16cc\	.	.	.	.	.
8B-\J	.	.	.	.	.	.	.	8d\J	.	16dd\	.	16dd\	.	.	.	.	.
.	.	.	.	.	.	.	.	.	.	16ee-\JJ)	.	16ee-\JJ)	.	.	.	.	.
*2\right	*	*	*	*	*	*	*	*2\right	*	*8\right	*	*8\right	*	*	*	*	*
*tremolo	*	*	*	*	*	*	*	*tremolo	*	*	*	*	*	*	*	*	*
!	!	!	!	!	!	!	!	!	!	!LO:TX:a:t=Problem: mixed beam	!	!LO:TX:a:t=Problem:mixed beam	!	!	!	!	!
8A\L	6	.	.	.	.	.	.	8c\L	.	(8ff\L	.	8ff\L	.	.	.	.	.
8A\	.	.	.	.	.	.	.	8c\	.	8f/)	.	8f/	.	.	.	.	.
8A\	.	.	.	.	.	.	.	8c\	.	8f/	.	8f/	.	.	.	.	.
8A\J	.	.	.	.	.	.	.	8c\J	.	8f/J	.	8f/J	.	.	.	.	.
=2	=2	=2	=2	=2	=2	=2	=2	=2	=2	=2	=2	=2	=2	=2	=2	=2	=2
8G\L	.	.	.	.	.	.	.	8B-/L	.	4g/	.	4g/	.	.	.	.	.
8G\	.	.	.	.	.	.	.	8B-/	.	.	.	.	.	.	.	.	.
8G\	.	.	.	.	.	.	.	8B-/	.	16b-\LL	.	(16b-\LL	.	.	.	.	.
.	.	.	.	.	.	.	.	.	.	16a/	.	16a/	.	.	.	.	.
8G\J	.	.	.	.	.	.	.	8B-/J	.	16b-\	.	16b-\	.	.	.	.	.
.	.	.	.	.	.	.	.	.	.	16cc\JJ	.	16cc\JJ)	.	.	.	.	.
!	!	!	!	!	!	!	!	!	!	!LO:TX:a:t=Problem: mixed beam	!	!LO:TX:a:t=Problem:mixed beam	!	!	!	!	!
8G\L	6	.	.	.	.	.	.	8A/L	.	(8dd\L	.	8dd\L	.	.	.	.	.
8G\	.	.	.	.	.	.	.	8A/	.	8d/)	.	8d/	.	.	.	.	.
8G\	.	.	.	.	.	.	.	8A/	.	8d/	.	8d/	.	.	.	.	.
8G\J	.	.	.	.	.	.	.	8A/J	.	8d/J	.	8d/J	.	.	.	.	.
=3	=3	=3	=3	=3	=3	=3	=3	=3	=3	=3	=3	=3	=3	=3	=3	=3	=3
8E-\L	.	.	.	.	.	.	.	8G/L	.	4e-/	.	4e-/	.	4r	.	4r	.
8E-\	.	.	.	.	.	.	.	8G/	.	.	.	.	.	.	.	.	.
8E-\	.	.	.	.	.	.	.	8G/	.	8r	.	8r	.	8r	.	8r	.
*	*	*	*	*	*	*	*	*	*	*	*	*	*	*8\right	*	*8\right	*
!	!	!	!	!	!	!	!	!	!	!	!	!	!	!	!LO:HP:t=fo	!	!LO:HP:t=for
8E-\J	.	.	.	.	.	.	.	8G/J	.	8ee-\	.	8gg\	.	8ee-\	f	8gg\	f
8F\L	6	.	.	.	.	.	.	8A/L	.	8ee-\L	.	(8gg\L	.	(8ee-\L	.	(8gg\L	.
8F\	7	.	.	.	.	.	.	8A/	.	8dd\	.	8ff\)	.	8dd\)	.	8ff\)	.
8F\	.	.	.	.	.	.	.	8A/	.	8dd\	.	(8ff\	.	(8dd\L	.	(8ff\L	.
8F\J	.	.	.	.	.	.	.	8A/J	.	8cc\J	.	8ee-\J)	.	8cc\J)J	.	8ee-\J)J	.
=4	=4	=4	=4	=4	=4	=4	=4	=4	=4	=4	=4	=4	=4	=4	=4	=4	=4
*Xtremolo	*	*	*	*	*	*	*	*4\right	*	*	*	*	*	*4\right	*	*4\right	*
8G\L	5	.	.	.	.	.	.	4B-/	.	&(8.b-\TL	.	8.dd\tL	.	4b-\	.	4dd\	.
8G\	.	.	.	.	.	.	.	.	.	.	.	.	.	.	.	.	.
*	*	*	*	*	*	*	*	*	*	*	*	*32\right	*	*	*	*	*
.	.	.	.	.	.	.	.	.	.	(32a/LL&)	.	32cc\LL	.	.	.	.	.
.	.	.	.	.	.	.	.	.	.	32b-\JJJ)	.	32dd\JJJ	.	.	.	.	.
!	!	!	!LO:LB:g=original	!	!	!	!	!	!	!	!	!	!	!	!	!	!
8E-\	6	.	.	.	.	.	.	4e-\	.	8g/L	.	8ee-\L	.	8g/L	.	8ee-\L	.
8E-\J	.	.	.	.	.	.	.	.	.	8e-/J	.	8cc\J	.	8e-/J	.	8cc\J	.
*4\right	*	*	*	*	*	*	*	*	*	*	*	*	*	*	*	*	*
4F\	.	.	.	.	.	.	.	4f\	.	8e-/L	.	(8cc\L	.	8e-/L	.	8cc\L	.
.	.	.	.	.	.	.	.	.	.	8d/	.	8b-\)	.	8c/	.	8b-\	.
4FF/	7	.	.	.	.	.	.	4F/	.	8d/	.	(8b-\	.	8e-/L	.	8b-\L	.
.	3	.	.	.	.	.	.	.	.	8c/J	.	8a\J)	.	8f/JJ	.	8a/JJ	.
=5	=5	=5	=5	=5	=5	=5	=5	=5	=5	=5	=5	=5	=5	=5	=5	=5	=5
*	*	*	*	*	*	*	*	*	*	*	*	*	*	*2\right	*	*2\right	*
4BB-/	.	.	00r	.	00r	.	.	4B-/	.	8B-/L	.	8b-\L	.	2d/	.	2b-\	.
.	.	.	.	.	.	.	.	.	.	16c/L	.	16cc\L	.	.	.	.	.
.	.	.	.	.	.	.	.	.	.	16d/JJ	.	16dd\JJ	.	.	.	.	.
4r	.	.	.	.	.	.	.	4r	.	16e-/LL	.	16ee-\LL	.	.	.	.	.
.	.	.	.	.	.	.	.	.	.	16f/	.	16ff\	.	.	.	.	.
.	.	.	.	.	.	.	.	.	.	16g/	.	16gg\	.	.	.	.	.
.	.	.	.	.	.	.	.	.	.	16a/JJ	.	16aa\JJ	.	.	.	.	.
2r	.	.	.	.	.	.	.	2r	.	8b-\L	.	8bb-\L	.	2r	.	2r	.
.	.	.	.	.	.	.	.	.	.	8f/	.	8ff\	.	.	.	.	.
.	.	.	.	.	.	.	.	.	.	8d/	.	8dd\	.	.	.	.	.
.	.	.	.	.	.	.	.	.	.	8B-/J	.	8b-\J	.	.	.	.	.
=6	=6	=6	=6	=6	=6	=6	=6	=6	=6	=6	=6	=6	=6	=6	=6	=6	=6
!	!	!	!	!	!	!	!	!	!	!LO:LB:g=original	!	!	!	!	!	!	!
8AA/L	6 5	.	.	.	.	.	.	8f\L	.	16f/LL 16cc/	.	4.e-/ 4.ee-/	.	2cc\	.	2ff\	.
.	.	.	.	.	.	.	.	.	.	16f/ 16cc/	.	.	.	.	.	.	.
8AA/	.	.	.	.	.	.	.	8f\	.	16f/ 16cc/	.	.	.	.	.	.	.
.	.	.	.	.	.	.	.	.	.	16f/JJ 16cc/	.	.	.	.	.	.	.
*	*	*	*	*	*	*	*	*	*	*tremolo	*	*	*	*	*	*	*
8AA/	.	.	.	.	.	.	.	8f\	.	16f/LL 16cc/	.	.	.	.	.	.	.
.	.	.	.	.	.	.	.	.	.	16f/ 16cc/	.	.	.	.	.	.	.
8AA/J	.	.	.	.	.	.	.	8f\J	.	16f/ 16cc/	.	24cc\LL	.	.	.	.	.
.	.	.	.	.	.	.	.	.	.	.	.	24dd\	.	.	.	.	.
.	.	.	.	.	.	.	.	.	.	16f/JJ 16cc/	.	.	.	.	.	.	.
.	.	.	.	.	.	.	.	.	.	.	.	24ee-\JJ	.	.	.	.	.
4BB-/	6	.	.	.	.	.	.	4f\	.	4f/ 4b-/	.	8dd'\L	.	4b-\	.	4dd\	.
.	.	.	.	.	.	.	.	.	.	.	.	(8dd\	.	.	.	.	.
4r	.	.	.	.	.	.	.	4r	.	4r	.	8cc\	.	4r	.	4r	.
.	.	.	.	.	.	.	.	.	.	.	.	8b-\J)	.	.	.	.	.
=7	=7	=7	=7	=7	=7	=7	=7	=7	=7	=7	=7	=7	=7	=7	=7	=7	=7
!LO:TX:a:t=problem:cztery kropki nad półnutą	!	!	!	!	!	!	!	!	!	!	!	!	!	!LO:LB:g=original	!	!	!
*tremolo	*	*	*	*	*	*	*	*	*	*	*	*	*	*	*	*	*
8E-'\L	6	.	.	.	.	.	.	8e-\L	.	16e-/LL 16b-/	.	4.gg\	.	2cc\	.	2ff\	.
.	.	.	.	.	.	.	.	.	.	16e-/ 16b-/	.	.	.	.	.	.	.
8E-'\	.	.	.	.	.	.	.	8e-\	.	16e-/ 16b-/	.	.	.	.	.	.	.
.	.	.	.	.	.	.	.	.	.	16e-/ 16b-/	.	.	.	.	.	.	.
8E-'\	.	.	.	.	.	.	.	8e-\	.	16e-/ 16b-/	.	.	.	.	.	.	.
.	.	.	.	.	.	.	.	.	.	16e-/ 16b-/	.	.	.	.	.	.	.
*	*	*	*	*	*	*	*	*	*	*	*	*Xtuplet	*	*	*	*	*
8E-'\J	.	.	.	.	.	.	.	8e-\J	.	16e-/ 16b-/	.	24bb-\LL	.	.	.	.	.
.	.	.	.	.	.	.	.	.	.	.	.	24aa\	.	.	.	.	.
.	.	.	.	.	.	.	.	.	.	16e-/JJ 16b-/	.	.	.	.	.	.	.
.	.	.	.	.	.	.	.	.	.	.	.	24gg\JJ	.	.	.	.	.
!LO:LB:g=original	!	!	!	!	!	!	!	!	!	!	!	!	!	!	!	!	!
*Xtremolo	*	*	*	*	*	*	*	*	*	*	*	*	*	*	*	*	*
4D\	6	.	.	.	.	.	.	4d\	.	4d/ 4b-/	.	8ff'\L	.	4b-\	.	4dd\	.
.	.	.	.	.	.	.	.	.	.	.	.	(8ff\	.	.	.	.	.
4r	.	.	.	.	.	.	.	4r	.	4r	.	8ee-\	.	4r	.	4r	.
.	.	.	.	.	.	.	.	.	.	.	.	8dd\J)	.	.	.	.	.
=8	=8	=8	=8	=8	=8	=8	=8	=8	=8	=8	=8	=8	=8	=8	=8	=8	=8
!	!	!	!	!	!	!	!	!	!	!	!	!	!	!	!	!LO:LB:g=original	!
!	!	!	!	!	!	!	!	!	!	!	!	!	!	!LO:TX:a:t=2	!	!LO:TX:a:t=2	!
8E-\L	6	.	.	.	.	.	.	8g\L	.	16cc\LL	.	(16cc\LL	.	0r	.	0r	.
.	.	.	.	.	.	.	.	.	.	16dd\	.	16dd\	.	.	.	.	.
8E-\	.	.	.	.	.	.	.	8g\	.	16cc\	.	16cc\)	.	.	.	.	.
.	.	.	.	.	.	.	.	.	.	16bn\JJ	.	16bn'\JJ	.	.	.	.	.
8E-\	.	.	.	.	.	.	.	8g\	.	16cc\LL	.	(16cc\LL	.	.	.	.	.
.	.	.	.	.	.	.	.	.	.	16dd\	.	16dd\	.	.	.	.	.
8E-\J	.	.	.	.	.	.	.	8g\J	.	16ee-\	.	16ee-\)	.	.	.	.	.
.	.	.	.	.	.	.	.	.	.	16ff\JJ	.	16ff'\JJ	.	.	.	.	.
8E-\L	.	.	.	.	.	.	.	8g\L	.	8gg\L	.	8gg\L	.	.	.	.	.
8E-\	.	.	.	.	.	.	.	8g\	.	8ee-\	.	8ee-\	.	.	.	.	.
8E-\	5	.	.	.	.	.	.	8g\	.	8cc\	.	8cc\	.	.	.	.	.
8E-\J	.	.	.	.	.	.	.	8g\J	.	8b\J	.	8b\J	.	.	.	.	.
=9	=9	=9	=9	=9	=9	=9	=9	=9	=9	=9	=9	=9	=9	=9	=9	=9	=9
!	!	!	!	!	!	!	!	!	!	!	!	!LO:LB:g=original	!	!	!	!	!
.	.	.	.	.	.	.	.	.	.	.	.	8qqa/	.	.	.	.	.
4F\	.	.	00r	.	00r	.	.	4f\	.	4a/	.	4ff\	.	.	.	.	.
8r	.	.	.	.	.	.	.	8.f\L	.	8.A/L	.	8.f/L	.	.	.	.	.
8F'\	.	.	.	.	.	.	.	.	.	.	.	.	.	.	.	.	.
.	.	.	.	.	.	.	.	16f\Jk	.	16A/Jk	.	16f/Jk	.	.	.	.	.
8F'\L	.	.	.	.	.	.	.	8f\L	.	4A/	.	4f/	.	.	.	.	.
8E-'\	.	.	.	.	.	.	.	8e-\	.	.	.	.	.	.	.	.	.
8D'\	.	.	.	.	.	.	.	8d\	.	4r	.	4r	.	.	.	.	.
8C'\J	.	.	.	.	.	.	.	8c\J	.	.	.	.	.	.	.	.	.
=10	=10	=10	=10	=10	=10	=10	=10	=10	=10	=10	=10	=10	=10	=10	=10	=10	=10
!	!	!	!	!	!	!	!	!LO:LB:g=original	!	!	!	!	!	!	!	!	!
4BB-/	.	.	.	.	.	.	.	4B-/	p	8r	p	8r	p	4.dd\	.	4.ff\	.
.	.	.	.	.	.	.	.	.	.	(8B-/L	.	(8d/L	.	.	.	.	.
4BB-/	.	.	.	.	.	.	.	4B-/	.	8d/)	.	8f/	.	.	.	.	.
.	.	.	.	.	.	.	.	.	.	8c/'J	.	8e-/J)	.	8cc\	.	8ee-\	.
2r	.	.	.	.	.	.	.	2r	.	8B-/L	.	8d/'L	.	4b-\	.	4dd\	.
.	.	.	.	.	.	.	.	.	.	8c/	.	8e-/'	.	.	.	.	.
.	.	.	.	.	.	.	.	.	.	8d/	.	8f/	.	4r	.	4r	.
.	.	.	.	.	.	.	.	.	.	8B-/J	.	8d/J	.	.	.	.	.
=11	=11	=11	=11	=11	=11	=11	=11	=11	=11	=11	=11	=11	=11	=11	=11	=11	=11
!	!	!	!	!	!	!	!	!	!	!	!	!LO:TX:a:t=Problem:mixed beam	!	!	!	!	!
!	!	!LO:HP:t=for	!	!	!	!	!	!	!LO:HP:t=fo	!LO:TX:a:t=Problem: mixed beam	!	!	!LO:HP:t=for	!	!	!	!
4F\	7	f	.	.	.	.	.	4f\	f	8c/'L	f	8e-/'L	f	1cc\T	.	1ee-\T	.
.	.	.	.	.	.	.	.	.	.	8cc\'	.	8ee-\'	.	.	.	.	.
4r	.	.	.	.	.	.	.	4r	.	8a\'	.	8cc\'	.	.	.	.	.
.	.	.	.	.	.	.	.	.	.	8f\'J	.	8a\'J	.	.	.	.	.
*	*	*	*	*	*	*	*	*	*	*Xtremolo	*	*	*	*	*	*	*
!	!	!	!	!	!	!	!	!	!	!LO:LB:g=original	!	!	!	!	!	!	!
4r	.	.	.	.	.	.	.	4r	.	8a/'L	.	8cc\'L	.	.	.	.	.
.	.	.	.	.	.	.	.	.	.	8f/'	.	8a\'	.	.	.	.	.
4F\	.	.	.	.	.	.	.	4F/	.	8A/'	.	8f\'	.	.	.	.	.
.	.	.	.	.	.	.	.	.	.	8c/'J	.	8e-\'J	.	.	.	.	.
=12	=12	=12	=12	=12	=12	=12	=12	=12	=12	=12	=12	=12	=12	=12	=12	=12	=12
4B-\	.	p	.	.	.	.	.	4B-/	p	8B-/'L	p	8d/L	p	8b-\	.	8dd\	.
.	.	.	.	.	.	.	.	.	.	8B-/'	.	(8d/	.	4dd\	.	4ff\	.
4BB-/	.	.	.	.	.	.	.	4B-/	.	8d/'	.	8f/)	.	.	.	.	.
.	.	.	.	.	.	.	.	.	.	8c/'J	.	8e-/J	.	8cc\	.	8ee-\	.
2r	.	.	.	.	.	.	.	2r	.	8B-/'L	.	8d/'L	.	4b-\	.	4dd\	.
.	.	.	.	.	.	.	.	.	.	8c/'	.	8e-/'	.	.	.	.	.
.	.	.	.	.	.	.	.	.	.	8d/'	.	8f/'	.	4r	.	4r	.
.	.	.	.	.	.	.	.	.	.	8B-/'J	.	8d/J	.	.	.	.	.
=13	=13	=13	=13	=13	=13	=13	=13	=13	=13	=13	=13	=13	=13	=13	=13	=13	=13
!	!	!	!	!	!	!	!	!	!	!	!	!LO:TX:a:t=Problem:mixed beam	!	!	!	!	!
!	!	!LO:HP:t=fo	!	!	!	!	!	!	!LO:HP:t=for	!	!	!	!LO:HP:t=fo	!	!	!	!
4F\	.	f	00r	.	00r	.	.	4f\	f	8c/L	f	8e-/'L	f	1cc\T	.	1ee-\T	.
.	.	.	.	.	.	.	.	.	.	8cc\	.	8ee-\'	.	.	.	.	.
4r	.	.	.	.	.	.	.	4r	.	8a/	.	8cc\'	.	.	.	.	.
.	.	.	.	.	.	.	.	.	.	8f/J	.	8a\'J	.	.	.	.	.
4r	.	.	.	.	.	.	.	4r	.	8a/L	.	8cc\'L	.	.	.	.	.
.	.	.	.	.	.	.	.	.	.	8f/	.	8a\'	.	.	.	.	.
4F\	.	.	.	.	.	.	.	4F/	.	8A/	.	8f\'	.	.	.	.	.
.	.	.	.	.	.	.	.	.	.	8c/J	.	8e-\J	.	.	.	.	.
=14	=14	=14	=14	=14	=14	=14	=14	=14	=14	=14	=14	=14	=14	=14	=14	=14	=14
!LO:LB:g=original	!	!	!	!	!	!	!	!	!	!	!	!	!	!	!	!	!
4B-\	.	.	.	.	.	.	.	4B-/	.	16B-/LL	.	16d/LL	f	4b-\	.	4dd\	.
.	.	.	.	.	.	.	.	.	.	16f/	.	16f/	.	.	.	.	.
.	.	.	.	.	.	.	.	.	.	16g/	.	16g/	.	.	.	.	.
.	.	.	.	.	.	.	.	.	.	16a/JJ	.	16a/JJ	.	.	.	.	.
4BB-/	.	.	.	.	.	.	.	4B-/	.	16b-\LL	.	16b-\LL	.	4r	.	4r	.
.	.	.	.	.	.	.	.	.	.	16cc\	.	16cc\	.	.	.	.	.
.	.	.	.	.	.	.	.	.	.	16dd\	.	16dd\	.	.	.	.	.
.	.	.	.	.	.	.	.	.	.	16ee-\JJ	.	16ee-\JJ	.	.	.	.	.
!	!	!	!	!	!	!	!	!	!	!	!	!LO:LB:g=original	!	!	!	!	!
2r	.	.	.	.	.	.	.	2r	.	16ff\LL	.	16ff\LL	.	2r	.	2r	.
.	.	.	.	.	.	.	.	.	.	16b-\	.	16b-\	.	.	.	.	.
.	.	.	.	.	.	.	.	.	.	16cc\	.	16cc\	.	.	.	.	.
.	.	.	.	.	.	.	.	.	.	16dd\JJ	.	16dd\JJ	.	.	.	.	.
.	.	.	.	.	.	.	.	.	.	16ee-\LL	.	16ee-\LL	.	.	.	.	.
.	.	.	.	.	.	.	.	.	.	16ff\	.	16ff\	.	.	.	.	.
.	.	.	.	.	.	.	.	.	.	16gg\	.	16gg\	.	.	.	.	.
.	.	.	.	.	.	.	.	.	.	16aa\JJ	.	16aa\JJ	.	.	.	.	.
=15	=15	=15	=15	=15	=15	=15	=15	=15	=15	=15	=15	=15	=15	=15	=15	=15	=15
!	!	!	!	!	!	!	!	!	!LO:HP:t=fo	!	!	!	!	!LO:TX:a:t=1	!	!	!
8D\L	6	.	.	.	.	.	.	8b-\L	f	8bb-\L	.	8bb-\L	.	1r	.	1r	.
8D\	.	.	.	.	.	.	.	8b-\	.	8ff\	.	8ff\	.	.	.	.	.
8D\	.	.	.	.	.	.	.	8b-\	.	8ff\	.	8ff\	.	.	.	.	.
8D\J	.	.	.	.	.	.	.	8b-\J	.	8ff\J	.	8ff\J	.	.	.	.	.
!	!	!	!	!	!	!	!	!	!	!LO:LB:g=original	!	!	!	!	!	!	!
*	*	*	*	*	*	*	*	*Xtremolo	*	*	*	*	*	*	*	*	*
8E-\L	.	.	.	.	.	.	.	8b-\L	.	8ff#X\	.	(8ff#X\	.	.	.	.	.
8E-\	7	.	.	.	.	.	.	8b-\	.	4gg\	.	4gg\)	.	.	.	.	.
8A\	6	.	.	.	.	.	.	8cc\	.	.	.	.	.	.	.	.	.
8A\J	5	.	.	.	.	.	.	8cc\J	.	16ffn\LL	.	16ffn\LL	.	.	.	.	.
.	.	.	.	.	.	.	.	.	.	16ee-\JJ	.	16ee-\JJ	.	.	.	.	.
=16	=16	=16	=16	=16	=16	=16	=16	=16	=16	=16	=16	=16	=16	=16	=16	=16	=16
8B-\L	.	.	.	.	.	.	.	8f\L	.	8.dd\tL	.	(8.dd\L	.	8.b-\L	.	8.dd\L	.
8B-\	.	.	.	.	.	.	.	8f\	.	.	.	.	.	.	.	.	.
*	*	*	*	*	*	*	*	*	*	*32\right	*	*	*	*32\right	*	*32\right	*
.	.	.	.	.	.	.	.	.	.	32cc\LL	.	32cc\LL	.	32a\LL	.	32cc\LL	.
.	.	.	.	.	.	.	.	.	.	32dd\JJJ	.	32dd\JJJ)	.	32b-\JJJ	.	32dd\JJJ	.
8E-\	.	.	.	.	.	.	.	8g\	.	8ee-\L	.	8ee-\L	.	8g/L	.	8ee-\L	.
8E-\J	.	.	.	.	.	.	.	8e-\J	.	8cc\J	.	8cc\J	.	8f/J	.	8cc\J	.
!LO:TX:a:t=Problem: mixed beam	!	!	!	!	!	!	!	!	!	!	!	!	!	!	!	!	!
8F\L	6 4	.	.	.	.	.	.	8d\L	.	4b-\	.	4b-\	.	4d/	.	4b-\	.
8F\	.	.	.	.	.	.	.	8d\	.	.	.	.	.	.	.	.	.
8FF/	.	.	.	.	.	.	.	8c\	.	4an\	.	4a\	.	4e-/	.	4a/	.
8FF/J	5 3	.	.	.	.	.	.	8c\J	.	.	.	.	.	.	.	.	.
=17	=17	=17	=17	=17	=17	=17	=17	=17	=17	=17	=17	=17	=17	=17	=17	=17	=17
!	!	!	!	!	!	!	!	!	!	!LO:TX:a:t=sic!: ósemka z kropką zamiast ósemki	!	!	!	!	!	!	!
*tremolo	*	*	*	*	*	*	*	*tremolo	*	*	*	*	*	*	*	*	*
8BB-/L	.	.	00r	.	00r	.	.	8d\L	.	8b-\TL	.	8b-\L	.	2d/	.	2b-\	.
8BB-/	.	.	.	.	.	.	.	8d\	.	16cc\L	.	16cc\L	.	.	.	.	.
.	.	.	.	.	.	.	.	.	.	16dd\JJ	.	16dd\JJ	.	.	.	.	.
8BB-/	.	.	.	.	.	.	.	8d\	.	16ee-\LL	.	16ee-\LL	.	.	.	.	.
.	.	.	.	.	.	.	.	.	.	16ff\	.	16ff\	.	.	.	.	.
8BB-/J	.	.	.	.	.	.	.	8d\J	.	16gg\	.	16gg\	.	.	.	.	.
.	.	.	.	.	.	.	.	.	.	16aa\JJ	.	16aa\JJ	.	.	.	.	.
!	!	!	!	!	!	!	!	!	!	!LO:TX:a:t=Problem: mixed beam	!	!	!	!	!	!	!
8D/L	6	.	.	.	.	.	.	8d\L	.	8bb-\L	.	8bb-\L	.	2r	.	2r	.
8D/	.	.	.	.	.	.	.	8d\	.	8f/	.	8ff\	.	.	.	.	.
8D/	.	.	.	.	.	.	.	8d\	.	8f/	.	8ff\	.	.	.	.	.
8D/J	.	.	.	.	.	.	.	8d\J	.	8f/J	.	8ff\J	.	.	.	.	.
=18	=18	=18	=18	=18	=18	=18	=18	=18	=18	=18	=18	=18	=18	=18	=18	=18	=18
8E-\L	.	.	.	.	.	.	.	8e-\L	.	8f#X/L	.	8ff#X\L	.	1r	.	1r	.
8E-\	.	.	.	.	.	.	.	8e-\	.	8g/J	.	8gg\J	.	.	.	.	.
8E-\	.	.	.	.	.	.	.	8e-\	.	8r	.	8r	.	.	.	.	.
8E-\J	.	.	.	.	.	.	.	8e-\J	.	8g/	.	8gg\	.	.	.	.	.
*Xtremolo	*	*	*	*	*	*	*	*Xtremolo	*	*	*	*	*	*	*	*	*
8D\L	6	.	.	.	.	.	.	8d\L	.	8fn/L	.	(8ffn\L	.	.	.	.	.
8D\	.	.	.	.	.	.	.	8d\	.	8b-\J	.	8bb-\J)	.	.	.	.	.
8E-\	.	.	.	.	.	.	.	8e-\	.	16a/LL	.	16aa\LL	.	.	.	.	.
.	.	.	.	.	.	.	.	.	.	16g/	.	16gg\	.	.	.	.	.
8E-\J	.	.	.	.	.	.	.	8e-\J	.	16f/	.	16ff\	.	.	.	.	.
.	.	.	.	.	.	.	.	.	.	16e-/JJ	.	16ee-\JJ	.	.	.	.	.
=19	=19	=19	=19	=19	=19	=19	=19	=19	=19	=19	=19	=19	=19	=19	=19	=19	=19
!	!	!	!	!	!	!	!	!	!	!	!	!LO:LB:g=original	!	!	!	!LO:LB:g=original	!
*tremolo	*	*	*	*	*	*	*	*tremolo	*	*	*	*2\right	*	*	*	*	*
8F\L	6 4	.	.	.	.	.	.	16f\LL	.	16d/LL	.	2dd\	.	2b-\	.	2dd\	.
.	.	.	.	.	.	.	.	16f\	.	16b-/	.	.	.	.	.	.	.
8F\	.	.	.	.	.	.	.	16f\	.	16b-/	.	.	.	.	.	.	.
.	.	.	.	.	.	.	.	16f\JJ	.	16b-/JJ	.	.	.	.	.	.	.
!	!	!	!	!	!	!	!	!	!	!LO:LB:g=original	!	!	!	!	!	!	!
*	*	*	*	*	*	*	*	*	*	*tremolo	*	*	*	*	*	*	*
8F\	.	.	.	.	.	.	.	16f\LL	.	16b-\LL	.	.	.	.	.	.	.
.	.	.	.	.	.	.	.	16f\	.	16b-\	.	.	.	.	.	.	.
8F\J	.	.	.	.	.	.	.	16f\	.	16b-\	.	.	.	.	.	.	.
.	.	.	.	.	.	.	.	16f\JJ	.	16b-\JJ	.	.	.	.	.	.	.
8FF/L	5 3	.	.	.	.	.	.	16f\LL	.	16a/LL	.	2cc\T	.	2a\t	.	2cc\	.
.	.	.	.	.	.	.	.	16f\	.	16a/	.	.	.	.	.	.	.
8FF/	.	.	.	.	.	.	.	16f\	.	16a/	.	.	.	.	.	.	.
.	.	.	.	.	.	.	.	16f\	.	16a/	.	.	.	.	.	.	.
8FF/	.	.	.	.	.	.	.	16f\	.	16a/	.	.	.	.	.	.	.
.	.	.	.	.	.	.	.	16f\	.	16a/	.	.	.	.	.	.	.
8FF/J	.	.	.	.	.	.	.	16f\	.	16a/	.	.	.	.	.	.	.
.	.	.	.	.	.	.	.	16f\JJ	.	16a/JJ	.	.	.	.	.	.	.
=20	=20	=20	=20	=20	=20	=20	=20	=20	=20	=20	=20	=20	=20	=20	=20	=20	=20
!LO:LB:g=original	!	!	!	!	!	!	!	!	!	!	!	!	!	!LO:LB:g=original	!	!	!
4BB-/	.	.	.	.	.	.	.	4f\	.	4b-\	.	4b-\	.	4b-\	.	4b-\	.
4BB-/	.	.	.	.	.	.	.	4f\	.	4d/ 4b-/	.	4f/ 4dd/	.	4f\	.	4dd\	.
4BB-/	.	.	.	.	.	.	.	4f\	.	4d/ 4b-/	.	4d/ 4b-/	.	4d\	.	4b-\	.
4r	.	.	.	.	.	.	.	4r	.	4r	.	4r	.	4r	.	4r	.
=21	=21	=21	=21	=21	=21	=21	=21	=21	=21	=21	=21	=21	=21	=21	=21	=21	=21
!	!	!	!	!	!	!	!	!	!	!	!	!	!	!LO:TX:a:t=34.	!	!LO:TX:a:t=34.	!
*	*	*	*	*	*4\right	*	*	*	*	*2\right	*	*	*	*	*	*	*
8B-\L	.	p	00r	.	4B-\	In-	.	8b-\L	p	8dd\L	p	4b-\	p	1r	.	1r	.
8B-\	.	.	.	.	.	.	.	8b-\	.	8dd\	.	.	.	.	.	.	.
*	*	*	*	*	*8\right	*	*	*	*	*	*	*	*	*	*	*	*
8B-\	.	.	.	.	8.d\L	.	.	8b-\	.	8dd\	.	(16dd\LL	.	.	.	.	.
.	.	.	.	.	.	.	.	.	.	.	.	16cc\	.	.	.	.	.
8B-\J	.	.	.	.	.	.	.	8b-\J	.	8dd\J	.	16dd\	.	.	.	.	.
*	*	*	*	*	*16\right	*	*	*	*	*	*	*	*	*	*	*	*
.	.	.	.	.	16e-\Jk	-flam-	.	.	.	.	.	16ee-\JJ)	.	.	.	.	.
!	!	!	!	!	!	!	!	!	!	!	!	!LO:TX:a:t=Problem:mixed beam	!	!	!	!	!
8A\L	6	.	.	.	4f\^	-ma-	.	8a\L	.	8cc\L	.	8ff\L	.	.	.	.	.
8A\	.	.	.	.	.	.	.	8a\	.	8cc\	.	8f/	.	.	.	.	.
8A\	.	.	.	.	4F/	-tus	.	8a\	.	8cc\	.	8f/	.	.	.	.	.
8A\J	.	.	.	.	.	.	.	8a\J	.	8cc\J	.	8f/J	.	.	.	.	.
=22	=22	=22	=22	=22	=22	=22	=22	=22	=22	=22	=22	=22	=22	=22	=22	=22	=22
8G\L	.	.	.	.	4G/	et	.	8g\L	.	8b-\L	.	4g/	.	1r	.	1r	.
8G\	.	.	.	.	.	.	.	8g\	.	8b-\	.	.	.	.	.	.	.
!	!	!	!	!	!	!	!LO:DY:a	!	!	!	!	!	!	!	!	!	!
8G\	.	.	.	.	8.B-\L	ac-	>	8g\	.	8b-\	.	(16b-\LL	.	.	.	.	.
.	.	.	.	.	.	.	.	.	.	.	.	16a/	.	.	.	.	.
8G\J	.	.	.	.	.	.	.	8g\J	.	8b-\J	.	16b-\)	.	.	.	.	.
.	.	.	.	.	16c\Jk	.	.	.	.	.	.	16cc\JJ	.	.	.	.	.
!	!	!	!	!	!	!	!	!	!	!	!	!LO:TX:a:t=Problem:mixed beam	!	!	!	!	!
8F\L	6	.	.	.	4d\	-cen-	.	8f\L	.	8a\L	.	8dd\L	.	.	.	.	.
8F\	.	.	.	.	.	.	.	8f\	.	8a\	.	8d/	.	.	.	.	.
8F\	.	.	.	.	4D/	-tus	]]	8f\	.	8a\	.	8d/	.	.	.	.	.
8F\J	.	.	.	.	.	.	.	8f\J	.	8a\J	.	8d/J	.	.	.	.	.
*	*	*	*	*	*	*	*	*	*	*Xtremolo	*	*	*	*	*	*	*
=23	=23	=23	=23	=23	=23	=23	=23	=23	=23	=23	=23	=23	=23	=23	=23	=23	=23
!	!	!	!	!	!LO:LB:g=original	!	!	!LO:TX:a:t=Problem:mixed beam	!	!	!	!	!	!	!	!	!
8E-\L	.	.	.	.	4E-/	per	.	8e-\L	.	4g/	.	4e-/	.	1r	.	1r	.
8E-\	.	.	.	.	.	.	.	8G/	.	.	.	.	.	.	.	.	.
8E-\	.	.	.	.	8r	.	.	8G/	.	8r	.	8r	.	.	.	.	.
8E-\J	.	.	.	.	8g\	te	.	8G/J	.	8ee-\	.	8gg\	.	.	.	.	.
8F\L	.	.	.	.	8g\L	Vir-	.	8A/L	.	(8ee-\L	.	(8gg\L	.	.	.	.	.
8F\	9	.	.	.	8f\J	.	.	8A/	.	8dd\)	.	8ff\)	.	.	.	.	.
8F\	8	.	.	.	8f\L	-go	.	8A/	.	(8dd\	.	(8ff\	.	.	.	.	.
8F\J	7	.	.	.	8e-\J	.	.	8A/J	.	8cc\J)	.	8ee-\J)	.	.	.	.	.
*Xtremolo	*	*	*	*	*	*	*	*	*	*	*	*	*	*	*	*	*
=24	=24	=24	=24	=24	=24	=24	=24	=24	=24	=24	=24	=24	=24	=24	=24	=24	=24
8G\L	5	.	.	.	8.d\tL	sim	.	8B-/L	.	8.b-\L	.	(8.dd\L	.	1r	.	1r	.
.	6	.	.	.	.	.	.	.	.	.	.	.	.	.	.	.	.
8G\	.	.	.	.	.	.	.	8B-/	.	.	.	.	.	.	.	.	.
*	*	*	*	*	*32\right	*	*	*Xtremolo	*	*	*	*	*	*	*	*	*
.	.	.	.	.	(32c\	.	.	.	.	32a/LL	.	32cc\LL	.	.	.	.	.
.	.	.	.	.	32d\J	.	.	.	.	32b-\JJJ	.	32dd\JJJ	.	.	.	.	.
8E-\	.	.	.	.	8e-\)	.	.	8e-\	.	8g/L	.	8ee-\L)	.	.	.	.	.
8E-\J	.	.	.	.	8c\	de-	.	8e-\J	.	8e-/J	.	8cc\J	.	.	.	.	.
!LO:TX:a:t=Problem: mixed beam	!	!	!	!	!	!	!	!LO:TX:a:t=Problem:mixed beam	!	!	!	!	!	!	!	!	!
8F\L	.	.	.	.	8c\L	-fen-	.	8f\L	.	8e-/L	.	(8cc\L	.	.	.	.	.
8F\	4	.	.	.	8B-\	.	.	8f\	.	8d/	.	8b-\)	.	.	.	.	.
8FF/	.	.	.	.	8B-\	.	.	8F/	.	8d/	.	(8b-\	.	.	.	.	.
8FF/J	3	.	.	.	8A\J	.	.	8F/J	.	8c/J	.	8a\J)	.	.	.	.	.
=25	=25	=25	=25	=25	=25	=25	=25	=25	=25	=25	=25	=25	=25	=25	=25	=25	=25
!	!	!	!	!	!	!	!	!	!	!	!	!LO:LB:g=original	!	!	!	!	!
!	!	!	!	!	!	!	!	!LO:TX:a:t=Problem:mixed beam	!	!LO:TX:a:t=Problem: mixed beam	!	!	!	!	!	!	!
*	*	*	*	*	*2\right	*	*	*	*	*	*	*	*	*	*	*	*
.	.	.	.	.	.	.	.	.	.	.	.	4qqa/	.	.	.	.	.
2BB-/	.	.	1r	.	2B-\	-sus	.	8B-/L	.	8d/L	mf	2b-/	.	1r	.	1r	.
!	!	!	!	!	!	!	!	!	!LO:HP:t=mfor	!	!	!	!	!	!	!	!
.	.	.	.	.	.	.	.	8b-\	mf	(8dd\	.	.	.	.	.	.	.
.	.	.	.	.	.	.	.	8a\	.	8cc\	.	.	.	.	.	.	.
.	.	.	.	.	.	.	.	8b-\J	.	8dd\J)	.	.	.	.	.	.	.
2r	.	.	.	.	2r	.	.	8a\L	.	8cc\L	.	2r	.	.	.	.	.
.	.	.	.	.	.	.	.	8g\	.	8b-\	.	.	.	.	.	.	.
.	.	.	.	.	.	.	.	8f\	.	8a\	.	.	.	.	.	.	.
.	.	.	.	.	.	.	.	8en\J	.	8g\J	.	.	.	.	.	.	.
=26	=26	=26	=26	=26	=26	=26	=26	=26	=26	=26	=26	=26	=26	=26	=26	=26	=26
!	!	!	!	!	!	!	!	!LO:LB:g=original	!	!LO:LB:g=original	!	!	!	!	!	!	!
*tremolo	*	*	*4\right	*	*	*	*	*tremolo	*	*	*	*	*	*	*	*	*
8F\L	.	.	4F\	In-	00r	.	.	8f\L	p	8f/L	p	4ff\	.	1r	.	1r	.
8F\	.	.	.	.	.	.	.	8f\	.	8a/	.	.	.	.	.	.	.
*	*	*	*8\right	*	*	*	*	*	*	*	*	*	*	*	*	*	*
8F\	.	.	8.A\L	-flam-	.	.	.	8f\	.	8a/	.	(16aa\LL	.	.	.	.	.
.	.	.	.	.	.	.	.	.	.	.	.	16gg\	.	.	.	.	.
8F\J	.	.	.	.	.	.	.	8f\J	.	8a/J	.	16aa\	.	.	.	.	.
*	*	*	*16\right	*	*	*	*	*	*	*tremolo	*	*	*	*	*	*	*
.	.	.	16B-\Jk	.	.	.	.	.	.	.	.	16bb-\JJ)	.	.	.	.	.
8En\L	6	.	4c\	-ma-	.	.	.	8en\L	.	8g/L	.	8ccc\L	.	.	.	.	.
8E\	.	.	.	.	.	.	.	8e\	.	8g/	.	8cc\	.	.	.	.	.
8E\	.	.	4C/	-tus	.	.	.	8e\	.	8g/	.	8cc\	.	.	.	.	.
8E\J	.	.	.	.	.	.	.	8e\J	.	8g/J	.	8cc\J	.	.	.	.	.
=27	=27	=27	=27	=27	=27	=27	=27	=27	=27	=27	=27	=27	=27	=27	=27	=27	=27
!LO:PB:g=original	!	!	!	!	!	!	!	!	!	!	!	!	!	!	!	!	!
8D\L	.	.	4D\	et	.	.	.	8d\L	.	8f/L	.	4dd\	.	1r	.	1r	.
8D\	.	.	.	.	.	.	.	8d\	.	8f/	.	.	.	.	.	.	.
8D\	.	.	8.F\L	ac-	.	.	.	8d\	.	8f/	.	(16ff\LL	.	.	.	.	.
.	.	.	.	.	.	.	.	.	.	.	.	16een\	.	.	.	.	.
8D\J	.	.	.	.	.	.	.	8d\J	.	8f/J	.	16ff\)	.	.	.	.	.
.	.	.	16G\Jk	.	.	.	.	.	.	.	.	16gg\JJ	.	.	.	.	.
8C\L	6	.	4A\	-cen-	.	.	.	8c\L	.	8en/L	.	8aa\L	.	.	.	.	.
8C\	.	.	.	.	.	.	.	8c\	.	8e/	.	8a\	.	.	.	.	.
8C\	.	.	4AA/	-sus	.	.	.	8c\	.	8e/	.	8a\	.	.	.	.	.
8C\J	.	.	.	.	.	.	.	8c\J	.	8e/J	.	8a\J	.	.	.	.	.
*	*	*	*	*	*	*	*	*	*	*Xtremolo	*	*	*	*	*	*	*
=28	=28	=28	=28	=28	=28	=28	=28	=28	=28	=28	=28	=28	=28	=28	=28	=28	=28
8BB-/L	.	.	4BB-/	per	.	.	.	8B-\L	.	4d/	.	4b-\	.	1r	.	1r	.
8BB-/	.	.	.	.	.	.	.	8d\	.	.	.	.	.	.	.	.	.
8BB-/	.	.	8r	.	.	.	.	8d\	.	8r	.	8r	.	.	.	.	.
8BB-/J	9	.	8d\	te	.	.	.	8d\J	.	8bb-\	.	8ddd\	.	.	.	.	.
8C/L	8	.	8d\L	Vir-	.	.	.	8en\L	.	(8bb-\L	.	(8ddd\L	.	.	.	.	.
8C/	7	.	8c\J	.	.	.	.	8e\	.	8aa\)	.	8ccc\)	.	.	.	.	.
8C/	.	.	8c\L	-go	.	.	.	8e\	.	(8aa\	.	(8ccc\	.	.	.	.	.
8C/J	.	.	8B-\J	.	.	.	.	8e\J	.	8gg\J)	.	8bb-\J)	.	.	.	.	.
=29	=29	=29	=29	=29	=29	=29	=29	=29	=29	=29	=29	=29	=29	=29	=29	=29	=29
!	!	!	!LO:LB:g=original	!	!	!	!	!	!	!	!	!	!	!	!	!	!
8D\L	5	.	8.A\tL	sim	.	.	.	8f\L	.	8.ff\L	.	8.aa\L	.	1r	.	1r	.
8D\	.	.	.	.	.	.	.	8f\	.	.	.	.	.	.	.	.	.
*Xtremolo	*	*	*32\right	*	*	*	*	*Xtremolo	*	*32\right	*	*	*	*	*	*	*
.	.	.	(32G\LL	.	.	.	.	.	.	(32een\LL	.	32gg\LL	.	.	.	.	.
.	.	.	32A\JJJ	.	.	.	.	.	.	32ff\JJJ)	.	32aa\JJJ	.	.	.	.	.
8BB-/	6	.	8B-\)	.	.	.	.	8B-\	.	8dd\L	.	8bb-\L	.	.	.	.	.
8BB-/J	.	.	8G\	de-	.	.	.	8B-\J	.	8b-\J	.	8gg\J	.	.	.	.	.
8C/L	.	.	8G\L	-fen-	.	.	.	8c/L	.	(8b-\L	.	(8gg\L	.	.	.	.	.
8C/	4	.	8F\	.	.	.	.	8c/	.	8a\)	.	8ff\)	.	.	.	.	.
8CC/	.	.	8F\	.	.	.	.	8C/	.	(8a\	.	(8ff\	.	.	.	.	.
8CC/J	3	.	8En\J	.	.	.	.	8C/J	.	8g\J)	.	8een\J)	.	.	.	.	.
=30	=30	=30	=30	=30	=30	=30	=30	=30	=30	=30	=30	=30	=30	=30	=30	=30	=30
!LO:TX:a:t=Problem: mixed beam	!	!	!	!	!	!	!	!	!	!	!	!	!	!	!	!	!
.	.	.	4qqE-/	.	.	.	.	.	.	.	.	.	.	.	.	.	.
*	*	*	*2\right	*	*	*	*	*	*	*	*	*	*	*	*	*	*
8FF/L	5	.	2F\	-sus	4r	.	.	8F/L	.	4a/	.	4ff\	.	1r	.	1r	.
8F\	.	.	.	.	.	.	.	8A/	.	.	.	.	.	.	.	.	.
8A\	.	.	.	.	2f\	In-	.	8c\	.	4a/	.	4ff\	.	.	.	.	.
8G\J	.	.	.	.	.	.	.	8B-/J	.	.	.	.	.	.	.	.	.
!	!	!	!	!	!	!	!	!	!	!	!	!LO:LB:g=original	!	!	!	!	!
8F\L	.	.	2r	.	.	.	.	8A/L	.	4r	.	4r	.	.	.	.	.
8G\	.	.	.	.	.	.	.	8B-/	.	.	.	.	.	.	.	.	.
8A\	.	.	.	.	4f\	-flam-	.	8c\	.	4a/	.	4ff\	.	.	.	.	.
8B-\J	.	.	.	.	.	.	.	8d\J	.	.	.	.	.	.	.	.	.
=31	=31	=31	=31	=31	=31	=31	=31	=31	=31	=31	=31	=31	=31	=31	=31	=31	=31
!LO:TX:a:t=Problem: mixed beam	!	!	!	!	!	!	!	!	!	!	!	!	!	!	!	!	!
8c\L	.	.	4r	.	8f\L	-ma-	.	8F/L	.	4r	.	4r	.	1r	.	1r	.
8C/	.	.	.	.	8en\J	.	.	8en\	.	.	.	.	.	.	.	.	.
8En/	7	.	(4G\	et	2.e\	-tus	.	8g\	.	4g/	.	4een\	.	.	.	.	.
8D/J	.	.	.	.	.	.	.	8f\J	.	.	.	.	.	.	.	.	.
8C/L	.	.	4c\)	.	.	.	.	8e\L	.	4r	.	4r	.	.	.	.	.
8D\	.	.	.	.	.	.	.	8f\	.	.	.	.	.	.	.	.	.
8E\	.	.	4B-\	ac-	.	.	.	8g\	.	4g/	.	4ee\	.	.	.	.	.
8C/J	.	.	.	.	.	.	.	8e\J	.	.	.	.	.	.	.	.	.
=32	=32	=32	=32	=32	=32	=32	=32	=32	=32	=32	=32	=32	=32	=32	=32	=32	=32
8F\L	.	.	8A\L	-cen-	4r	.	.	8A/L	.	4r	.	4r	.	1r	.	1r	.
8G\	.	.	8G\J	.	.	.	.	8B-/	.	.	.	.	.	.	.	.	.
8A\	.	.	8A\L	-sus	2e-X\	per	.	8c\	.	4a/	.	4ee-X\	.	.	.	.	.
8G\J	.	.	8G\J	.	.	.	.	8B-/J	.	.	.	.	.	.	.	.	.
8F\L	.	.	8F\L	per	.	.	.	8A/L	.	4r	.	4r	.	.	.	.	.
8G\	.	.	8G\J	.	.	.	.	8B-/	.	.	.	.	.	.	.	.	.
8A\	7-	.	8A\L	te	4e-\	te	.	8c\	.	4a/	.	4ee-\	.	.	.	.	.
8F\J	.	.	8F\J	.	.	.	.	8A/J	.	.	.	.	.	.	.	.	.
=33	=33	=33	=33	=33	=33	=33	=33	=33	=33	=33	=33	=33	=33	=33	=33	=33	=33
!LO:LB:g=original	!	!	!	!	!LO:LB:g=original	!	!	!LO:LB:g=original	!	!LO:LB:g=original	!	!	!	!	!	!	!
8B-\L	.	.	8B-\L	vir-	8e-\L	vir-	.	8d\L	.	4r	.	4r	.	1r	.	1r	.
8A\	.	.	8A\J	.	8d\J	.	.	8c\	.	.	.	.	.	.	.	.	.
8B-\	.	.	8B-\L	-go	4d\	-go	.	8d\	.	4f/	.	4dd\	.	.	.	.	.
8A\J	.	.	8A\J	.	.	.	.	8c\J	.	.	.	.	.	.	.	.	.
!	!	!	!LO:LB:g=original	!	!	!	!	!	!	!	!	!	!	!	!	!	!
8G\L	.	.	8G\L	sim	4.g\	sim	.	8B-\L	.	4r	.	4r	.	.	.	.	.
8A\	.	.	8A\J	.	.	.	.	8c\	.	.	.	.	.	.	.	.	.
8B-\	6	.	8B-\L	de-	.	.	.	8d\	.	4dd/	.	4ff\	.	.	.	.	.
8Bn\J	5	.	8Bn\J	.	8f\	de-	.	8Bn\J	.	.	.	.	.	.	.	.	.
=34	=34	=34	=34	=34	=34	=34	=34	=34	=34	=34	=34	=34	=34	=34	=34	=34	=34
.	.	.	.	.	8qqg/	.	.	.	.	.	.	16qqgg/	.	.	.	.	.
4c\	3n	.	4c\	-fen-	8f\L	-fen-	.	4c\	.	4g/	.	8ff\L	.	1r	.	1r	.
.	.	.	.	.	16en\L	.	.	.	.	.	.	16een\L	.	.	.	.	.
.	.	.	.	.	16f\JJ	.	.	.	.	.	.	16ff\JJ	.	.	.	.	.
8.C/L	.	.	4C/	-sus	4e\	-sus	.	8c\L	.	8g/L	.	8ee\L	.	.	.	.	.
.	.	.	.	.	.	.	.	8c\J	.	8g/J	.	8ee\J	.	.	.	.	.
16C/Jk	.	.	.	.	.	.	.	.	.	.	.	.	.	.	.	.	.
4C/	.	.	4r	.	4r	.	.	4c\	.	4g/	.	4ee\	.	.	.	.	.
4r	.	.	8r	.	8r	.	.	4r	.	4r	.	4r	.	.	.	.	.
.	.	.	8c\	in	8e\	in	.	.	.	.	.	.	.	.	.	.	.
=35	=35	=35	=35	=35	=35	=35	=35	=35	=35	=35	=35	=35	=35	=35	=35	=35	=35
2c\	5_ 3_	.	2c\	die	2en\	die	.	2c\	.	8r	.	8r	.	1r	.	1r	.
.	.	.	.	.	.	.	.	.	.	8g/L	.	8een\L	.	.	.	.	.
.	.	.	.	.	.	.	.	.	.	8g/	.	8ee\	.	.	.	.	.
.	.	.	.	.	.	.	.	.	.	8g/J	.	8ee\J	.	.	.	.	.
4d-X\	.	.	4d-X\	ju-	4e\	ju-	.	4d-X\	.	8r	.	8r	.	.	.	.	.
!	!	!	!	!	!	!	!	!	!	!LO:TX:a:t=problem:druga grupa w tt.35-40 powtórzona znakiem ./.	!	!	!	!	!	!	!
.	.	.	.	.	.	.	.	.	.	8g/L	.	8ee\L	.	.	.	.	.
4c\	x	.	4c\	.	4e\	.	.	4B-\	.	8g/	.	8ee\	.	.	.	.	.
.	.	.	.	.	.	.	.	.	.	8g/J	.	8ee\J	.	.	.	.	.
=36	=36	=36	=36	=36	=36	=36	=36	=36	=36	=36	=36	=36	=36	=36	=36	=36	=36
2Bn\	7-	.	2.Bn\	-fi-	2.f\	-di-	.	4Bn\	.	8r	.	8r	.	1r	.	1r	.
.	.	.	.	.	.	.	.	.	.	8a-X/L	.	8ff\L	.	.	.	.	.
.	.	.	.	.	.	.	.	2en\	.	8a-/	.	8ff\	.	.	.	.	.
.	.	.	.	.	.	.	.	.	.	8a-/J	.	8ff\J	.	.	.	.	.
2B\	.	.	.	.	.	.	.	.	.	8r	.	8r	.	.	.	.	.
.	.	.	.	.	.	.	.	.	.	8a-X/L	.	8ff\L	.	.	.	.	.
.	.	.	4B\	-ci-	4f\	-ci-	.	4d\	.	8a-/	.	8ff\	.	.	.	.	.
.	.	.	.	.	.	.	.	.	.	8a-/J	.	8ff\J	.	.	.	.	.
=37	=37	=37	=37	=37	=37	=37	=37	=37	=37	=37	=37	=37	=37	=37	=37	=37	=37
!	!	!	!	!	!	!	!	!	!	!	!	!LO:LB:g=original	!	!	!	!	!
4c\	.	.	2c\	-j	2en\	-i	.	4c\	.	8r	.	8r	.	1r	.	1r	.
.	.	.	.	.	.	.	.	.	.	8g/L	.	8ee-\L	.	.	.	.	.
4r	.	.	.	.	.	.	.	4r	.	8g/	.	8ee-\	.	.	.	.	.
.	.	.	.	.	.	.	.	.	.	8g/J	.	8ee-\J	.	.	.	.	.
4C/	.	.	4r	.	4r	.	.	4c\	.	8r	.	8r	.	.	.	.	.
.	.	.	.	.	.	.	.	.	.	8g/L	.	8ee-\L	.	.	.	.	.
4r	.	.	8r	.	8r	.	.	4r	.	8g/	.	8ee-\	.	.	.	.	.
.	.	.	8C/	in	8e\	in	.	.	.	8g/J	.	8ee-\J	.	.	.	.	.
=38	=38	=38	=38	=38	=38	=38	=38	=38	=38	=38	=38	=38	=38	=38	=38	=38	=38
2C/	5_ 3_	.	2C/	die	2en\	die	.	2c\	.	8r	.	8r	.	1r	.	1r	.
.	.	.	.	.	.	.	.	.	.	8en/L	.	8g/L	.	.	.	.	.
.	.	.	.	.	.	.	.	.	.	8e/	.	8g/	.	.	.	.	.
.	.	.	.	.	.	.	.	.	.	8e/J	.	8g/J	.	.	.	.	.
4D-X/	.	.	4D-X/	ju-	4e\	ju-	.	4d-X\	.	8r	.	8r	.	.	.	.	.
.	x	.	.	.	.	.	.	.	.	8en/L	.	8g/L	.	.	.	.	.
4C/	.	.	4C/	.	4e\	.	.	4c\	.	8e/	.	8g/	.	.	.	.	.
.	.	.	.	.	.	.	.	.	.	8e/J	.	8g/J	.	.	.	.	.
=39	=39	=39	=39	=39	=39	=39	=39	=39	=39	=39	=39	=39	=39	=39	=39	=39	=39
!	!	!	!LO:LB:g=original	!	!	!	!	!	!	!	!	!	!	!	!	!	!
2BBn/	7-	.	2.BBn/	-di-	2.f\	-di-	.	4Bn/	.	8r	.	8r	.	1r	.	1r	.
.	.	.	.	.	.	.	.	.	.	8f/L	.	8a-X/L	.	.	.	.	.
.	.	.	.	.	.	.	.	2dn\	.	8f/	.	8a-/	.	.	.	.	.
.	.	.	.	.	.	.	.	.	.	8f/J	.	8a-/J	.	.	.	.	.
2BB/	.	.	.	.	.	.	.	.	.	8r	.	8r	.	.	.	.	.
.	.	.	.	.	.	.	.	.	.	8f/L	.	8a-/L	.	.	.	.	.
.	.	.	4BB/	-ci-	4f\	-ci-	.	4d\	.	8f/	.	8a-/	.	.	.	.	.
.	.	.	.	.	.	.	.	.	.	8f/J	.	8a-/J	.	.	.	.	.
=40	=40	=40	=40	=40	=40	=40	=40	=40	=40	=40	=40	=40	=40	=40	=40	=40	=40
!LO:LB:g=original	!	!	!	!	!LO:LB:g=original	!	!	!	!	!LO:LB:g=original	!	!	!	!	!	!	!
4C/	.	.	2C/	-i	2en\	-i	.	4c\	.	8r	.	8r	.	1r	.	1r	.
.	.	.	.	.	.	.	.	.	.	8en/L	.	8g/L	.	.	.	.	.
8r	.	.	.	.	.	.	.	8r	.	8e/	.	8g/	.	.	.	.	.
8C/	.	.	.	.	.	.	.	8c\	.	8e/J	.	8g/J	.	.	.	.	.
8c\L	.	.	2r	.	2r	.	.	8cc\L	.	4e/	.	4g/	.	.	.	.	.
8c\	.	.	.	.	.	.	.	8cc\	.	.	.	.	.	.	.	.	.
8B-\	2	.	.	.	.	.	.	8b-\	.	4r	.	4r	.	.	.	.	.
8B-\J	.	.	.	.	.	.	.	8b-\J	.	.	.	.	.	.	.	.	.
=41	=41	=41	=41	=41	=41	=41	=41	=41	=41	=41	=41	=41	=41	=41	=41	=41	=41
!	!	!	!	!	!	!	!	!LO:LB:g=original	!	!	!	!LO:TX:a:t=Problem:mixed beam	!	!	!	!	!
*tremolo	*	*	*	*	*	*	*	*tremolo	*	*	*	*	*	*	*	*	*
8A\L	.	.	1r	.	4r	.	.	8a\L	.	1r	.	8.f/L	.	1r	.	1r	.
8A\	.	.	.	.	.	.	.	8a\	.	.	.	.	.	.	.	.	.
.	.	.	.	.	.	.	.	.	.	.	.	16ff\Jk	.	.	.	.	.
8A\	.	.	.	.	2f\	per	.	8a\	.	.	.	2ff\	.	.	.	.	.
8A\J	.	.	.	.	.	.	.	8a\J	.	.	.	.	.	.	.	.	.
8A\L	.	.	.	.	.	.	.	8a\L	.	.	.	.	.	.	.	.	.
8A\	.	.	.	.	.	.	.	8a\	.	.	.	.	.	.	.	.	.
!	!	!	!	!	!LO:TX:a:t=Problem: 3 pod łukiem	!	!	!	!	!	!	!	!	!	!	!	!
8A\	.	.	.	.	12en\L	te	.	8a\	.	.	.	(12een\L	.	.	.	.	.
.	.	.	.	.	12d\	.	.	.	.	.	.	12dd\	.	.	.	.	.
8A\J	.	.	.	.	.	.	.	8a\J	.	.	.	.	.	.	.	.	.
.	.	.	.	.	12c#X\J	.	.	.	.	.	.	12cc#X\J)	.	.	.	.	.
=42	=42	=42	=42	=42	=42	=42	=42	=42	=42	=42	=42	=42	=42	=42	=42	=42	=42
!	!	!	!	!	!	!	!	!	!	!LO:PB:g=original	!	!	!	!	!	!	!
8B-\L	.	.	4r	.	8c\L	vir-	.	8b-\L	.	4r	.	(8cc\L	.	1r	.	1r	.
8B-\	.	.	.	.	8d\J	.	.	8b-\	.	.	.	8dd\	.	.	.	.	.
8B-\	6	.	(4B-\	sum	4d\	-go	.	8b-\	.	4.b-\	.	8dd\)	.	.	.	.	.
8B-\J	.	.	.	.	.	.	.	8b-\J	.	.	.	8dd\J	.	.	.	.	.
8B-\L	5	.	8B-\L)	.	2r	.	.	8b-\L	.	.	.	4dd\	.	.	.	.	.
8B-\	.	.	8A\J	.	.	.	.	8b-\	.	8a\L	.	.	.	.	.	.	.
8B-\	.	.	8G\L	de-	.	.	.	8b-\	.	8g\	.	4r	.	.	.	.	.
8B-\J	.	.	8F\J	.	.	.	.	8b-\J	.	8f\J	.	.	.	.	.	.	.
=43	=43	=43	=43	=43	=43	=43	=43	=43	=43	=43	=43	=43	=43	=43	=43	=43	=43
!	!	!	!	!	!	!	!	!	!	!	!	!LO:LB:g=original	!	!	!	!	!
8c\L	4|	.	8F\L	-fen-	4r	.	.	8g\L	.	8f/L	.	8r	.	1r	.	1r	.
8c\	.	.	8En\J	.	.	.	.	8g\	.	8en/J	.	8dd\L	.	.	.	.	.
8c\	9	.	8E\	-sus	8d\	sin	.	8g\	.	8r	.	8dd\	.	.	.	.	.
8c\J	.	.	8B-\	de-	8d\	de-	.	8g\J	.	8b-\	.	8dd\J	.	.	.	.	.
8C/L	8	.	8B-\L	-fen-	8d\L	-fen-	.	8en\L	.	8b-\L	.	(8dd\L	.	.	.	.	.
8C/	.	.	8A\	.	8c#X\	.	.	8e\	.	8a\	.	8cc\)	.	.	.	.	.
8C/	7	.	8A\	.	8c#\	.	.	8e\	.	8a\	.	(8cc\	.	.	.	.	.
8C/J	.	.	8G\J	.	8B-\J	.	.	8e\J	.	8g\J	.	8b-\J)	.	.	.	.	.
=44	=44	=44	=44	=44	=44	=44	=44	=44	=44	=44	=44	=44	=44	=44	=44	=44	=44
.	.	.	8qqG/	.	16qqB-/	.	.	.	.	.	.	.	.	.	.	.	.
4F\	.	.	2F\	-sus	2A\	-sus	.	8f\	.	(8f/L	.	8a\L	.	1r	.	1r	.
.	.	.	.	.	.	.	.	4c\	.	8a/J)	.	8cc\J	.	.	.	.	.
4C\	.	.	.	.	.	.	.	.	.	8r	.	8r	.	.	.	.	.
.	.	.	.	.	.	.	.	4c\	.	8f/	.	8a\	.	.	.	.	.
4En\	.	.	2r	.	4.c\	per	.	.	.	(8en/L	.	8g\L	.	.	.	.	.
.	.	.	.	.	.	.	.	4c\	.	8g/J)	.	8cc\J	.	.	.	.	.
4C\	.	.	.	.	.	.	.	.	.	8r	.	8r	.	.	.	.	.
.	.	.	.	.	8B-\	te	.	[8c\	.	8g/	.	8b-\	.	.	.	.	.
=45	=45	=45	=45	=45	=45	=45	=45	=45	=45	=45	=45	=45	=45	=45	=45	=45	=45
!	!	!	!LO:LB:g=original	!	!	!	!	!	!	!	!	!	!	!	!	!	!
4F\	.	.	2r	.	8.A\L	vir-	.	8c\]	.	(8f/L	.	8a\L	.	1r	.	1r	.
.	.	.	.	.	.	.	.	4c\	.	8a/J)	.	8cc\J	.	.	.	.	.
.	.	.	.	.	16c\Jk	.	.	.	.	.	.	.	.	.	.	.	.
4C\	.	.	.	.	4c\	-go	.	.	.	8r	.	8r	.	.	.	.	.
.	.	.	.	.	.	.	.	4c\	.	8f/	.	8a\	.	.	.	.	.
4En\	.	.	4.c\	sim	2r	.	.	.	.	(8en/L	.	8g\L	.	.	.	.	.
.	.	.	.	.	.	.	.	4c\	.	8g/J)	.	8cc\J	.	.	.	.	.
4C\	.	.	.	.	.	.	.	.	.	8r	.	8r	.	.	.	.	.
.	.	.	8B-\	de-	.	.	.	[8c\	.	8g/	.	8b-\	.	.	.	.	.
=46	=46	=46	=46	=46	=46	=46	=46	=46	=46	=46	=46	=46	=46	=46	=46	=46	=46
!	!	!	!	!	!LO:LB:g=original	!	!	!	!	!	!	!	!	!	!	!	!
4F\	.	.	8.A\L	-fen-	2r	.	.	8c\]	.	(8f/L	.	8a\L	.	1r	.	1r	.
.	.	.	.	.	.	.	.	4c\	.	8a/J)	.	8cc\J	.	.	.	.	.
.	.	.	16c\Jk	.	.	.	.	.	.	.	.	.	.	.	.	.	.
4d\	.	.	4c\	-sus	.	.	.	.	.	8r	.	8r	.	.	.	.	.
.	.	.	.	.	.	.	.	4c\	.	8f/	.	8a\	.	.	.	.	.
4c\	.	.	2r	.	4.c\	sim	.	.	.	8en/L	.	8g\L	.	.	.	.	.
.	.	.	.	.	.	.	.	4c\	.	8g/J	.	8cc\J	.	.	.	.	.
4B-\	.	.	.	.	.	.	.	.	.	8r	.	8r	.	.	.	.	.
.	.	.	.	.	8B-\	de-	.	8c\	.	8g/	.	8b-\	.	.	.	.	.
=47	=47	=47	=47	=47	=47	=47	=47	=47	=47	=47	=47	=47	=47	=47	=47	=47	=47
2A\	.	.	4r	.	8.A\L	-fen-	.	4c\	.	4f/	.	4a\	.	1r	.	1r	.
.	.	.	.	.	16G\Jk	.	.	.	.	.	.	.	.	.	.	.	.
.	.	.	4d\	in	4F/	-sus	.	4A\	.	4ff\	.	4ff\	.	.	.	.	.
4r	.	.	4c\	di-	4r	.	.	4A\	.	4ff\	.	4ff\	.	.	.	.	.
4B-\	.	.	4B-\	.	4f\	in	.	4d\	.	4ff\	.	4ff\	.	.	.	.	.
*Xtremolo	*	*	*	*	*	*	*	*	*	*	*	*	*	*	*	*	*
=48	=48	=48	=48	=48	=48	=48	=48	=48	=48	=48	=48	=48	=48	=48	=48	=48	=48
!LO:LB:g=original	!	!	!	!	!	!	!	!	!	!LO:LB:g=original	!	!LO:LB:g=original	!	!	!	!	!
8c\L	.	.	2A\	-e	4f\	di-	.	4c\	.	4ff\	.	4ff\	.	1r	.	1r	.
8c\	.	.	.	.	.	.	.	.	.	.	.	.	.	.	.	.	.
8c\	4	.	.	.	8.en\L	.	.	4r	.	8.een\L	.	8.een\L	.	.	.	.	.
8c\J	.	.	.	.	.	.	.	.	.	.	.	.	.	.	.	.	.
.	.	.	.	.	16d\Jk	.	.	.	.	16dd\Jk	.	16dd\Jk	.	.	.	.	.
8C/L	3n	.	4r	.	8.c\L	-e	.	4r	.	8.cc\L	.	8.cc\L	.	.	.	.	.
8C/	.	.	.	.	.	.	.	.	.	.	.	.	.	.	.	.	.
.	.	.	.	.	16B-\Jk	.	.	.	.	16b-\K	.	16b-\K	.	.	.	.	.
8C/	.	.	4B-\	ju-	8.A\L	ju-	.	4d\	.	8.a\	.	8.a\	.	.	.	.	.
8C/J	.	.	.	.	.	.	.	.	.	.	.	.	.	.	.	.	.
.	.	.	.	.	16G\Jk	.	.	.	.	16g\Jk	.	16g\Jk	.	.	.	.	.
=49	=49	=49	=49	=49	=49	=49	=49	=49	=49	=49	=49	=49	=49	=49	=49	=49	=49
*	*	*	*	*	*	*	*	*	*	*tremolo	*	*	*	*	*	*	*
8F\L	.	.	2c\	-di-	2F/	-di	.	8c\L	.	8f/L	.	2f/	.	1r	.	1r	.
8F\	.	.	.	.	.	.	.	8A\	.	8f/	.	.	.	.	.	.	.
8F\	.	.	.	.	.	.	.	8A\	.	8f/	.	.	.	.	.	.	.
8F\J	.	.	.	.	.	.	.	8A\J	.	8f/J	.	.	.	.	.	.	.
*tremolo	*	*	*	*	*	*	*	*	*	*	*	*	*	*	*	*	*
8En\L	6	.	4.C/	.	4.G/M	.	.	8B-\L	.	8en/L	.	2g/T	.	.	.	.	.
8E\	.	.	.	.	.	.	.	8B-\	.	8e/	.	.	.	.	.	.	.
8E\	.	.	.	.	.	.	.	8B-\	.	8e/	.	.	.	.	.	.	.
8E\J	.	.	8C/	-ci-	8G/	cij	.	8B-\J	.	8e/J	.	.	.	.	.	.	.
=50	=50	=50	=50	=50	=50	=50	=50	=50	=50	=50	=50	=50	=50	=50	=50	=50	=50
!	!	!	!	!	!	!	!	!	!LO:HP:t=for	!LO:TX:a:t=Problem:mixed beam	!	!	!	!	!	!	!
8D\L	.	.	2F\	-i	2F/	.	.	8A/L	f	8f'/L	f	4f/	f	1r	.	1r	.
8D\	.	.	.	.	.	.	.	8a\	.	8cc\	.	.	.	.	.	.	.
8D\	.	.	.	.	.	.	.	8a\	.	8cc\	.	8aa\L	.	.	.	.	.
8D\J	.	.	.	.	.	.	.	8a\J	.	8cc\J	.	16gg\L	.	.	.	.	.
.	.	.	.	.	.	.	.	.	.	.	.	16aa\JJ	.	.	.	.	.
8C\L	6	.	2r	.	2r	.	.	8g\L	.	8cc\L	.	4gg\	.	.	.	.	.
8C\	.	.	.	.	.	.	.	8g\	.	8cc\	.	.	.	.	.	.	.
8C\	.	.	.	.	.	.	.	8g\	.	8cc\	.	4cc\	.	.	.	.	.
8C\J	.	.	.	.	.	.	.	8g\J	.	8cc\J	.	.	.	.	.	.	.
=51	=51	=51	=51	=51	=51	=51	=51	=51	=51	=51	=51	=51	=51	=51	=51	=51	=51
!	!	!	!	!	!	!	!	!LO:LB:g=original	!	!	!	!	!	!	!	!	!
8BB-/L	.	.	00r	.	00r	.	.	8f\L	.	8a/L	.	8r	.	1r	.	1r	.
8BB-/	.	.	.	.	.	.	.	8f\	.	8a/	.	(32ff\LLL	.	.	.	.	.
.	.	.	.	.	.	.	.	.	.	.	.	32een\	.	.	.	.	.
.	.	.	.	.	.	.	.	.	.	.	.	32ff\	.	.	.	.	.
.	.	.	.	.	.	.	.	.	.	.	.	32gg\JJJ)	.	.	.	.	.
8BB-/	.	.	.	.	.	.	.	8f\	.	8a/	.	8ff\L	.	.	.	.	.
8BB-/J	6	.	.	.	.	.	.	8f\J	.	8a/J	.	8dd\J	.	.	.	.	.
8AA/L	.	.	.	.	.	.	.	8en\L	.	8a/L	.	4ee\	.	.	.	.	.
8AA/	.	.	.	.	.	.	.	8e\	.	8a/	.	.	.	.	.	.	.
8AA/	.	.	.	.	.	.	.	8e\	.	8a/	.	4a\	.	.	.	.	.
8AA/J	.	.	.	.	.	.	.	8e\J	.	8a/J	.	.	.	.	.	.	.
=52	=52	=52	=52	=52	=52	=52	=52	=52	=52	=52	=52	=52	=52	=52	=52	=52	=52
8GG/L	7	.	.	.	.	.	.	8d\L	.	8b-\L	.	4.dd\	.	1r	.	1r	.
8GG/	.	.	.	.	.	.	.	8f\	.	8dd\	.	.	.	.	.	.	.
8GG/	.	.	.	.	.	.	.	8f\	.	8dd\	.	.	.	.	.	.	.
8GG/J	.	.	.	.	.	.	.	8f\J	.	8dd\J	.	24b-\LL	.	.	.	.	.
.	.	.	.	.	.	.	.	.	.	.	.	24cc\	.	.	.	.	.
.	.	.	.	.	.	.	.	.	.	.	.	24dd\JJ	.	.	.	.	.
8C/L	7 3n	.	.	.	.	.	.	8f\L	.	8cc\L	.	8cc\L	.	.	.	.	.
8C/	.	.	.	.	.	.	.	8f\	.	8cc\	.	8ff\	.	.	.	.	.
8C/	.	.	.	.	.	.	.	8f\	.	8cc\	.	8aa\	.	.	.	.	.
8C/J	.	.	.	.	.	.	.	8f\J	.	8cc\J	.	8ccc\J	.	.	.	.	.
=53	=53	=53	=53	=53	=53	=53	=53	=53	=53	=53	=53	=53	=53	=53	=53	=53	=53
!	!	!	!	!	!	!	!	!	!	!	!	!LO:LB:g=original	!	!	!	!	!
8F\L	.	.	.	.	.	.	.	8f\L	.	8dd\L	.	(8ccc\L	.	1r	.	1r	.
8En\	.	.	.	.	.	.	.	8f\	.	8dd\	.	8bb-\	.	.	.	.	.
8F\	.	.	.	.	.	.	.	8f\	.	8dd\	.	8aa\)	.	.	.	.	.
8G\J	.	.	.	.	.	.	.	8f\J	.	8dd\J	.	8gg\J	.	.	.	.	.
*	*	*	*	*	*	*	*	*Xtremolo	*	*Xtremolo	*	*	*	*	*	*	*
8A\L	.	.	.	.	.	.	.	8g\L	.	8cc\L	.	(8ff\L	.	.	.	.	.
8B-\	.	.	.	.	.	.	.	8g\	.	8cc\	.	8een\	.	.	.	.	.
8A\	.	.	.	.	.	.	.	8en\	.	(8een\	.	8gg\	.	.	.	.	.
8G\J	.	.	.	.	.	.	.	8e\J	.	8gg\J)	.	8bb-\J)	.	.	.	.	.
=54	=54	=54	=54	=54	=54	=54	=54	=54	=54	=54	=54	=54	=54	=54	=54	=54	=54
.	.	.	.	.	.	.	.	.	.	.	.	16qqbb-/	.	.	.	.	.
4F\	.	.	.	.	.	.	.	8f\L	.	2ff\	.	2aa\	.	1r	.	1r	.
.	.	.	.	.	.	.	.	8g\	.	.	.	.	.	.	.	.	.
4FF/	.	.	.	.	.	.	.	8a\	.	.	.	.	.	.	.	.	.
.	.	.	.	.	.	.	.	8b-\J	.	.	.	.	.	.	.	.	.
2r	.	.	.	.	.	.	.	8cc\L	.	2r	.	2r	.	.	.	.	.
.	.	.	.	.	.	.	.	8dd\	.	.	.	.	.	.	.	.	.
.	.	.	.	.	.	.	.	8cc\	.	.	.	.	.	.	.	.	.
.	.	.	.	.	.	.	.	8b-\J	.	.	.	.	.	.	.	.	.
=55	=55	=55	=55	=55	=55	=55	=55	=55	=55	=55	=55	=55	=55	=55	=55	=55	=55
!LO:LB:g=original	!	!	!	!	!	!	!	!	!	!	!	!	!	!	!	!	!
4C/	7 3n	.	00r	.	00r	.	.	4a\	p	8r	p	8r	p	4.aa\	.	4.ccc\	.
!	!	!	!	!	!	!	!	!	!	!	!	!LO:TX:a:t=Problem: repetycja - 2 takty	!	!	!	!	!
.	.	.	.	.	.	.	.	.	.	(8f/L	.	8a\L	.	.	.	.	.
4r	.	.	.	.	.	.	.	4f\	.	8a/	.	8cc\	.	.	.	.	.
.	.	.	.	.	.	.	.	.	.	8g/'J)	.	8b-\J	.	8gg\	.	8bb-\	.
!	!	!	!	!	!	!	!	!	!	!LO:LB:g=original	!	!	!	!	!	!	!
4r	.	.	.	.	.	.	.	2r	.	8f/'L	.	8a\'L	.	4ff\	.	4aa\	.
.	.	.	.	.	.	.	.	.	.	8g/'	.	8b-\'	.	.	.	.	.
4C/	.	.	.	.	.	.	.	.	.	8a/'	.	8cc\'	.	4r	.	4r	.
.	.	.	.	.	.	.	.	.	.	8f/'J	.	8a\'J	.	.	.	.	.
=56	=56	=56	=56	=56	=56	=56	=56	=56	=56	=56	=56	=56	=56	=56	=56	=56	=56
!	!	!	!	!	!	!	!	!	!LO:HP:t=fo	!LO:TX:a:t=Problem:mixed beam	!	!	!LO:HP:t=fo	!	!	!	!
4F\	.	.	.	.	.	.	.	4c\	f	8g/L	f	8b-\'L	f	1gg\	.	1bb-\	.
.	.	.	.	.	.	.	.	.	.	8gg\	.	8bb-\'	.	.	.	.	.
4FF/	.	.	.	.	.	.	.	4r	.	8een\	.	8gg\'	.	.	.	.	.
.	.	.	.	.	.	.	.	.	.	8cc\J	.	8een\'J	.	.	.	.	.
2r	.	.	.	.	.	.	.	4r	.	8ee\L	.	8gg\'L	.	.	.	.	.
.	.	.	.	.	.	.	.	.	.	8cc\	.	8ee\'	.	.	.	.	.
!	!	!	!	!	!	!	!	!	!	!LO:TX:a:t=Problem:mixed beam	!	!	!	!	!	!	!
.	.	.	.	.	.	.	.	4c\	.	8en/	.	8cc\'	.	.	.	.	.
.	.	.	.	.	.	.	.	.	.	8g/J	.	8b-\'J	.	.	.	.	.
=57	=57	=57	=57	=57	=57	=57	=57	=57	=57	=57	=57	=57	=57	=57	=57	=57	=57
4C/	7 3n	.	.	.	.	.	.	4f\	p	8f'/L	p	8r	.	8ff\	.	8aa\	.
.	.	.	.	.	.	.	.	.	.	(8f/	.	8a/L	p	4aa\	.	4ccc\	.
4r	.	.	.	.	.	.	.	4F/	.	8a/)	.	8cc\	.	.	.	.	.
.	.	.	.	.	.	.	.	.	.	8g/J	.	8b-\J	.	8gg\	.	4bb-\	.
4r	.	.	.	.	.	.	.	2r	.	8f/'L	.	8a/'L	.	4ff\	.	.	.
.	.	.	.	.	.	.	.	.	.	8g/'	.	8b-\'	.	.	.	8aa\	.
4C/	.	.	.	.	.	.	.	.	.	8a/'	.	8cc\'	.	4r	.	4r	.
.	.	.	.	.	.	.	.	.	.	8f/'J	.	8a/'J	.	.	.	.	.
=58	=58	=58	=58	=58	=58	=58	=58	=58	=58	=58	=58	=58	=58	=58	=58	=58	=58
!LO:TX:a:t=sic!: brakuje jednego taktu - pottórki t. 56	!	!	!	!	!	!	!	!	!	!	!	!	!LO:HP:t=for	!	!	!	!
!	!	!	!	!	!	!	!	!	!LO:HP:t=for	!	!	!	!	!	!	!	!
8F\L	.	.	.	.	.	.	.	4c\	f	8g\L	f	8b-\'L	f	1gg\	.	1bb-\	.
8F\	.	.	.	.	.	.	.	.	.	8gg\	.	8bb-\'	.	.	.	.	.
8F\	.	.	.	.	.	.	.	4r	.	8een\	.	8gg\'	.	.	.	.	.
8F\J	.	.	.	.	.	.	.	.	.	8b-\J	.	8een\'J	.	.	.	.	.
!	!	!	!	!	!	!	!	!	!	!LO:TX:a:t=problem:mixed beam	!	!	!	!	!	!	!
8AA/L	6	.	.	.	.	.	.	4r	.	8ee\L	.	8gg\'L	.	.	.	.	.
8AA/	.	.	.	.	.	.	.	.	.	8cc\	.	8ee\'	.	.	.	.	.
8AA/	.	.	.	.	.	.	.	4c\	.	8e-/	.	8cc\'	.	.	.	.	.
8AA/J	.	.	.	.	.	.	.	.	.	8g/J	.	8b-\'J	.	.	.	.	.
=59	=59	=59	=59	=59	=59	=59	=59	=59	=59	=59	=59	=59	=59	=59	=59	=59	=59
*	*	*	*	*	*	*	*	*tremolo	*	*	*	*	*	*	*	*	*
8BB-/L	.	.	00r	.	00r	.	.	8f\L	.	8f/L	.	8a\L	f	4ff\	.	4aa\	.
8BB-/	.	.	.	.	.	.	.	8f\	.	16f/L	.	16ff\L	.	.	.	.	.
.	.	.	.	.	.	.	.	.	.	16g/JJ	.	16gg\JJ	.	.	.	.	.
8BB-/	.	.	.	.	.	.	.	8f\	.	8f/L	.	8ff\L	.	4r	.	4r	.
8BB-/J	.	.	.	.	.	.	.	8f\J	.	8f/J	.	8ff\J	.	.	.	.	.
8BB-/L	.	.	.	.	.	.	.	8A/L	.	8f/L	.	8ff\L	.	2r	.	2r	.
8BB-/	.	.	.	.	.	.	.	8A/	.	8e-/	.	8ee-\	.	.	.	.	.
8BB-/	.	.	.	.	.	.	.	8A/	.	8d/	.	8dd\	.	.	.	.	.
8BB-/J	.	.	.	.	.	.	.	8A/J	.	8c#X/J	.	8cc#X\J	.	.	.	.	.
=60	=60	=60	=60	=60	=60	=60	=60	=60	=60	=60	=60	=60	=60	=60	=60	=60	=60
8C/L	6 4	.	.	.	.	.	.	8B-/L	.	8c/L	.	8cc\L	.	1r	.	1r	.
8C/	.	.	.	.	.	.	.	8B-/	.	8d/J	.	8dd\J	.	.	.	.	.
8C/	.	.	.	.	.	.	.	8B-/	.	4d/	.	4dd\	.	.	.	.	.
8C/J	.	.	.	.	.	.	.	8B-/J	.	.	.	.	.	.	.	.	.
!	!	!	!	!	!	!	!	!	!	!LO:LB:g=original	!	!LO:LB:g=original	!	!	!	!	!
8C/L	5 3n	.	.	.	.	.	.	8B-/L	.	8r	.	8r	.	.	.	.	.
8C/	.	.	.	.	.	.	.	8B-/	.	8dd\L	.	8ddd\L	.	.	.	.	.
8C/	.	.	.	.	.	.	.	8B-/	.	8cc\	.	8ccc\	.	.	.	.	.
8C/J	.	.	.	.	.	.	.	8B-/J	.	8b-\J	.	8bb-\J	.	.	.	.	.
=61	=61	=61	=61	=61	=61	=61	=61	=61	=61	=61	=61	=61	=61	=61	=61	=61	=61
!	!	!	!	!	!	!	!	!LO:LB:g=original	!	!	!	!	!	!	!	!LO:LB:g=original	!
4F\	.	.	.	.	.	.	.	16c\LL	.	16a\LL	.	2aa\	.	2ff\	.	2aa\	.
.	.	.	.	.	.	.	.	16c\	.	16ff\	.	.	.	.	.	.	.
.	.	.	.	.	.	.	.	16c\	.	16a\	.	.	.	.	.	.	.
.	.	.	.	.	.	.	.	16c\	.	16ff\JJ	.	.	.	.	.	.	.
*	*	*	*	*	*	*	*	*	*	*tremolo	*	*	*	*	*	*	*
4F\	.	.	.	.	.	.	.	16c\	.	16a\LL 16ff\	.	.	.	.	.	.	.
.	.	.	.	.	.	.	.	16c\	.	16a\ 16ff\	.	.	.	.	.	.	.
.	.	.	.	.	.	.	.	16c\	.	16a\ 16ff\	.	.	.	.	.	.	.
.	.	.	.	.	.	.	.	16c\JJ	.	16a\JJ 16ff\	.	.	.	.	.	.	.
4F\	.	.	.	.	.	.	.	16c\LL	.	16cc\LL 16een\	.	2gg\T	.	2eeX\	.	2gg\T	.
.	.	.	.	.	.	.	.	16c\	.	16cc\ 16ee\	.	.	.	.	.	.	.
.	.	.	.	.	.	.	.	16c\	.	16cc\ 16ee\	.	.	.	.	.	.	.
.	.	.	.	.	.	.	.	16c\	.	16cc\ 16ee\	.	.	.	.	.	.	.
4r	.	.	.	.	.	.	.	16c\	.	16cc\ 16ee\	.	.	.	.	.	.	.
.	.	.	.	.	.	.	.	16c\	.	16cc\ 16ee\	.	.	.	.	.	.	.
.	.	.	.	.	.	.	.	16c\	.	16cc\ 16ee\	.	.	.	.	.	.	.
.	.	.	.	.	.	.	.	16c\JJ	.	16cc\JJ 16ee\	.	.	.	.	.	.	.
=62	=62	=62	=62	=62	=62	=62	=62	=62	=62	=62	=62	=62	=62	=62	=62	=62	=62
!	!	!	!	!	!	!	!	!	!	!	!	!	!	!LO:LB:g=original	!	!	!
8F\L	.	.	.	.	.	.	.	4c\	.	4ff\	.	4ff\	.	4ff\	.	4ff\	.
8F\	.	.	.	.	.	.	.	.	.	.	.	.	.	.	.	.	.
8F\	.	.	.	.	.	.	.	4c\	.	4a\ 4ff\	.	4cc\ 4aa\	.	4b-\	.	4aa\	.
8F\J	.	.	.	.	.	.	.	.	.	.	.	.	.	.	.	.	.
8E-X\L	6	.	.	.	.	.	.	4c\	.	4a\ 4ff\	.	4a/ 4ff/	.	4a\	.	4ff\	.
8E-\	.	.	.	.	.	.	.	.	.	.	.	.	.	.	.	.	.
8E-\	.	.	.	.	.	.	.	4r	.	4r	.	4r	.	4r	.	4r	.
8E-\J	.	.	.	.	.	.	.	.	.	.	.	.	.	.	.	.	.
=63	=63	=63	=63	=63	=63	=63	=63	=63	=63	=63	=63	=63	=63	=63	=63	=63	=63
!	!	!	!LO:LB:g=original	!	!	!	!	!	!	!	!	!	!	!LO:TX:a:t=32	!	!LO:TX:a:t=32.	!
8D\L	7 #	.	(4F\	fac	00r	.	.	8a\L	p	4f/	p	4ff\	p	1r	.	1r	.
8D\	.	.	.	.	.	.	.	8a\	.	.	.	.	.	.	.	.	.
8D\	.	.	8.A\L	.	.	.	.	8a\	.	16a/LL	.	(16aa\LL	.	.	.	.	.
.	.	.	.	.	.	.	.	.	.	16g/	.	16gg\	.	.	.	.	.
8D\J	.	.	.	.	.	.	.	8a\J	.	16a/	.	16aa\)	.	.	.	.	.
.	.	.	16B-\Jk)	.	.	.	.	.	.	16b-\JJ	.	16bb-\JJ	.	.	.	.	.
*Xtremolo	*	*	*	*	*	*	*	*	*	*	*	*tremolo	*	*	*	*	*
8D\L	4# 3	.	4c\	.	.	.	.	8g\L	.	8cc\L	.	8ccc\LL	.	.	.	.	.
8D\	.	.	.	.	.	.	.	8g\	.	8cc\	.	8ccc\	.	.	.	.	.
8C\	.	.	4c\	me	.	.	.	8g\	.	8cc\	.	8ccc\	.	.	.	.	.
8C\J	.	.	.	.	.	.	.	8g\J	.	8cc\J	.	8ccc\JJ	.	.	.	.	.
*	*	*	*	*	*	*	*	*Xtremolo	*	*	*	*	*	*	*	*	*
=64	=64	=64	=64	=64	=64	=64	=64	=64	=64	=64	=64	=64	=64	=64	=64	=64	=64
!LO:LB:g=original	!	!	!	!	!	!	!	!	!	!	!	!	!	!	!	!	!
4BB-/	6	.	8.c\L	cru-	.	.	.	8f#X\L	.	8.cc\L	.	8.ccc\L	.	1r	.	1r	.
.	.	.	.	.	.	.	.	8f#\	.	.	.	.	.	.	.	.	.
.	.	.	16A\Jk	.	.	.	.	.	.	16a\Jk	.	16aa\Jk	.	.	.	.	.
.	.	.	8qqG/	.	.	.	.	.	.	16qqg/	.	8qqgg/	.	.	.	.	.
4C/	6	.	2F#X\	-ce	.	.	.	8a\	.	2f#X/	.	2ff#X\	.	.	.	.	.
.	.	.	.	.	.	.	.	8a\J	.	.	.	.	.	.	.	.	.
*	*	*	*	*	*	*	*	*tremolo	*	*	*	*	*	*	*	*	*
4D/	4#	.	.	.	.	.	.	8a\L	.	.	.	.	.	.	.	.	.
.	.	.	.	.	.	.	.	8a\	.	.	.	.	.	.	.	.	.
4DD/	.	.	(4e-\	cru-	.	.	.	8a\	.	4f#/	.	4ee-X\	.	.	.	.	.
.	.	.	.	.	.	.	.	8a\J	.	.	.	.	.	.	.	.	.
=65	=65	=65	=65	=65	=65	=65	=65	=65	=65	=65	=65	=65	=65	=65	=65	=65	=65
4GG/	.	.	4d\)	-ce	.	.	.	4g\	.	4g/	.	4dd\	.	1r	.	1r	.
8G\L	.	.	4c\	.	.	.	.	4e-\	.	4a/	.	4cc\	.	.	.	.	.
8A\J	.	.	.	.	.	.	.	.	.	.	.	.	.	.	.	.	.
8B-\L	.	.	4B-\	cus-	.	.	.	4d\	.	4g/	.	4b-\	.	.	.	.	.
8c\	.	.	.	.	.	.	.	.	.	.	.	.	.	.	.	.	.
8B-\	.	.	4A\	-to-	.	.	.	4d\	.	4f/	.	4a\	.	.	.	.	.
8A\J	.	.	.	.	.	.	.	.	.	.	.	.	.	.	.	.	.
=66	=66	=66	=66	=66	=66	=66	=66	=66	=66	=66	=66	=66	=66	=66	=66	=66	=66
*tremolo	*	*	*	*	*	*	*	*	*	*	*	*	*	*	*	*	*
8G\L	.	.	16B-\LL	-di-	.	.	.	4d\	.	(16g/LL	.	(16b-\LL	.	1r	.	1r	.
.	.	.	16A\	.	.	.	.	.	.	16f/	.	16a/	.	.	.	.	.
8G\	.	.	16B-\	.	.	.	.	.	.	16g/	.	16b-\	.	.	.	.	.
.	.	.	16c\JJ	.	.	.	.	.	.	16a/JJ)	.	16cc\JJ)	.	.	.	.	.
8G\	.	.	4d\	-ri	.	.	.	8g\L	.	4b-\	.	4dd\	.	.	.	.	.
8G\J	.	.	.	.	.	.	.	8a\J	.	.	.	.	.	.	.	.	.
8G\L	.	.	2r	.	.	.	.	8b-\L	.	2r	.	2r	.	.	.	.	.
8G\	.	.	.	.	.	.	.	8cc\	.	.	.	.	.	.	.	.	.
8G\	.	.	.	.	.	.	.	8b-\	.	.	.	.	.	.	.	.	.
8G\J	.	.	.	.	.	.	.	8a\J	.	.	.	.	.	.	.	.	.
*Xtremolo	*	*	*	*	*	*	*	*	*	*	*	*	*	*	*	*	*
=67	=67	=67	=67	=67	=67	=67	=67	=67	=67	=67	=67	=67	=67	=67	=67	=67	=67
!	!	!	!LO:TX:a:t=6	!	!	!	!	!	!	!LO:LB:g=original	!	!LO:LB:g=original	!	!	!	!	!
8G\L	4# 3	.	00r	.	4G\	Mor-	.	8g\L	.	8b-\L	.	4g/	.	1r	.	1r	.
8G\	.	.	.	.	.	.	.	8d\	.	8b-\	.	.	.	.	.	.	.
8F#X\	6	.	.	.	(16B-\LL	.	.	8d\	.	8b-\	.	(16b-/LL	.	.	.	.	.
.	.	.	.	.	16A\	.	.	.	.	.	.	16a/	.	.	.	.	.
8F#\J	.	.	.	.	16B-\)	.	.	8d\J	.	8b-\J	.	16b-/	.	.	.	.	.
.	.	.	.	.	16c\JJ	.	.	.	.	.	.	16cc/JJ)	.	.	.	.	.
!	!	!	!	!	!LO:LB:g=original	!	!	!	!	!	!	!	!	!	!	!	!
*tremolo	*	*	*	*	*	*	*	*	*	*	*	*	*	*	*	*	*
8F#\L	.	.	.	.	4d\	.	.	8d\L	.	8b-\L	.	8dd\L	.	.	.	.	.
8F#\	.	.	.	.	.	.	.	8d\	.	8b-\	.	8dd\	.	.	.	.	.
8F#\	.	.	.	.	4d\	-te	.	8d\	.	8b-\	.	8dd\	.	.	.	.	.
8F#\J	.	.	.	.	.	.	.	8d\J	.	8b-\J	.	8dd\J	.	.	.	.	.
*Xtremolo	*	*	*	*	*	*	*	*Xtremolo	*	*Xtremolo	*	*Xtremolo	*	*	*	*	*
=68	=68	=68	=68	=68	=68	=68	=68	=68	=68	=68	=68	=68	=68	=68	=68	=68	=68
8G\L	4# 3	.	.	.	8.c#X\L	Chri-	.	8en\L	.	8b-\L	.	(8.cc#X\L	.	1r	.	1r	.
8G\	.	.	.	.	.	.	.	8e\	.	8b-\	.	.	.	.	.	.	.
.	.	.	.	.	16en\Jk	.	.	.	.	.	.	16een\Jk)	.	.	.	.	.
8F#X\	6	.	.	.	4d\	-sti	.	8f#X\	.	8a\	.	4dd\	.	.	.	.	.
8F#\J	.	.	.	.	.	.	.	8f#\J	.	8a\J	.	.	.	.	.	.	.
*	*	*	*	*	*	*	*	*tremolo	*	*tremolo	*	*	*	*	*	*	*
8F#\L	6 3-	.	.	.	4r	.	.	8f#\L	.	8a\L	.	4r	.	.	.	.	.
8F#\	.	.	.	.	.	.	.	8f#\	.	8a\	.	.	.	.	.	.	.
8Fn\	.	.	.	.	8.d\	pre-	.	8f#\	.	8a\	.	8.dd\L	.	.	.	.	.
8F\J	.	.	.	.	.	.	.	8f#\J	.	8a\J	.	.	.	.	.	.	.
.	.	.	.	.	16d\k	-mu-	.	.	.	.	.	16dd\Jk	.	.	.	.	.
*	*	*	*	*	*	*	*	*Xtremolo	*	*Xtremolo	*	*	*	*	*	*	*
=69	=69	=69	=69	=69	=69	=69	=69	=69	=69	=69	=69	=69	=69	=69	=69	=69	=69
!	!	!	!	!	!	!	!	!LO:PB:g=original	!	!	!	!	!	!	!	!	!
8F\L	4n 3-	.	.	.	8.c#X\L	-ni-	.	8en\L	.	8b-\L	.	(8.cc#X\L	.	1r	.	1r	.
8F\	.	.	.	.	.	.	.	8e\	.	8b-\	.	.	.	.	.	.	.
.	.	.	.	.	16en\Jk	.	.	.	.	.	.	16een\Jk)	.	.	.	.	.
8E-X\	6	.	.	.	4d\	-ri	.	8f#X\	.	8a\	.	4dd\	.	.	.	.	.
8E-\J	.	.	.	.	.	.	.	8f#\J	.	8a\J	.	.	.	.	.	.	.
*tremolo	*	*	*	*	*	*	*	*	*	*	*	*	*	*	*	*	*
8E-\L	.	.	.	.	4r	.	.	8f#\L	.	8a\L	.	8r	.	.	.	.	.
8E-\	.	.	.	.	.	.	.	8f#\	.	8a\	.	(8dd\L	.	.	.	.	.
8E-\	.	.	.	.	8.d\	mor-	.	8fn\	.	8a-X\	.	8ff\)	.	.	.	.	.
8E-\J	.	.	.	.	.	.	.	8f\J	.	8a-\J	.	8dd\J	.	.	.	.	.
.	.	.	.	.	16d\k	-te	.	.	.	.	.	.	.	.	.	.	.
*Xtremolo	*	*	*	*	*	*	*	*	*	*	*	*	*	*	*	*	*
=70	=70	=70	=70	=70	=70	=70	=70	=70	=70	=70	=70	=70	=70	=70	=70	=70	=70
8F\L	4n 3-	.	.	.	(8.Bn\L	Chri-	.	8d\L	.	8a\L	.	(8.bn\L	.	1r	.	1r	.
8F\	.	.	.	.	.	.	.	8d\	.	8a\	.	.	.	.	.	.	.
.	.	.	.	.	32c\LL	.	.	.	.	.	.	32cc\LL	.	.	.	.	.
.	.	.	.	.	32d\JJJ)	.	.	.	.	.	.	32dd\JJJ)	.	.	.	.	.
8E-\	6	.	.	.	4c\	-sti	.	8e-X\	.	8g\	.	4cc\	.	.	.	.	.
8E-\J	.	.	.	.	.	.	.	8e-\J	.	8g\J	.	.	.	.	.	.	.
*	*	*	*	*	*	*	*	*tremolo	*	*tremolo	*	*	*	*	*	*	*
4E-\	.	.	.	.	4r	.	.	8e-\L	.	8g\L	.	4r	.	.	.	.	.
.	.	.	.	.	.	.	.	8e-\	.	8g\	.	.	.	.	.	.	.
4r	.	.	.	.	8.e-X\	pre-	.	8e-\	.	8g\	.	8.ee-X\L	.	.	.	.	.
.	.	.	.	.	.	.	.	8e-\J	.	8g\J	.	.	.	.	.	.	.
.	.	.	.	.	16c\k	-mu-	.	.	.	.	.	16cc\Jk	.	.	.	.	.
*	*	*	*	*	*	*	*	*Xtremolo	*	*Xtremolo	*	*	*	*	*	*	*
=71	=71	=71	=71	=71	=71	=71	=71	=71	=71	=71	=71	=71	=71	=71	=71	=71	=71
!LO:LB:g=original	!	!	!	!	!	!	!	!	!	!	!	!	!	!	!	!	!
8E-\L	6	.	0r	.	8.Bn\L	-ni-	.	8d\L	.	8a\L	.	8.bn\L	.	1r	.	1r	.
8E-\	.	.	.	.	.	.	.	8d\	.	8a\	.	.	.	.	.	.	.
.	.	.	.	.	32c\LL	.	.	.	.	.	.	(32cc\LL	.	.	.	.	.
.	.	.	.	.	32d\JJJ	.	.	.	.	.	.	32dd\JJJ)	.	.	.	.	.
8E-\	.	.	.	.	4c\	-ri	.	8e-\	.	8g\	.	4cc\	.	.	.	.	.
8E-\J	.	.	.	.	.	.	.	8e-\J	.	8g\J	.	.	.	.	.	.	.
!	!	!	!	!	!LO:LB:g=original	!	!	!	!	!	!	!LO:LB:g=original	!	!	!	!	!
8E-\L	.	.	.	.	4r	.	.	4e-\	.	4g\	.	8r	.	.	.	.	.
8E-\	.	.	.	.	.	.	.	.	.	.	.	8cc\L	.	.	.	.	.
8En\	5	.	.	.	8c\	con-	.	4r	.	4r	.	8cc\	.	.	.	.	.
8E\J	.	.	.	.	8c\	-fo-	.	.	.	.	.	8cc\J	.	.	.	.	.
=72	=72	=72	=72	=72	=72	=72	=72	=72	=72	=72	=72	=72	=72	=72	=72	=72	=72
*	*	*	*	*	*	*	*	*tremolo	*	*tremolo	*	*	*	*	*	*	*
4F\	.	.	.	.	4.g\	-ve-	.	8e-\L	.	8g/L	.	4.gg\	.	1r	.	1r	.
.	.	.	.	.	.	.	.	8e-\	.	8g/	.	.	.	.	.	.	.
4r	.	.	.	.	.	.	.	8e-\	.	8g/	.	.	.	.	.	.	.
.	.	.	.	.	8e-\	-ri	.	8e-\J	.	8g/J	.	8ee-\	.	.	.	.	.
4F\	.	.	.	.	8d\L	gra-	.	8e-\L	.	8g/L	.	(8dd\L	.	.	.	.	.
.	.	.	.	.	8c\J	.	.	8e-\	.	8g/	.	8cc\)	.	.	.	.	.
4r	.	.	.	.	8c\L	-ti-	.	8en\	.	8g/	.	(8cc\	.	.	.	.	.
.	.	.	.	.	8B-\J	.	.	8e\J	.	8g/J	.	8b-\J)	.	.	.	.	.
=73	=73	=73	=73	=73	=73	=73	=73	=73	=73	=73	=73	=73	=73	=73	=73	=73	=73
!	!	!	!LO:LB:g=original	!	!	!	!	!	!	!LO:LB:g=original	!	!	!	!	!	!	!
4F\	.	.	4r	.	(4A\	-a	.	8f\L	.	8f/	.	8a/	.	1r	.	1r	.
.	.	.	.	.	.	.	.	8f\	.	8r	.	8r	.	.	.	.	.
4r	.	.	(4B-\	con-	4d\	con-	.	8f\	.	8b-/	.	8dd\	.	.	.	.	.
.	.	.	.	.	.	.	.	8f\J	.	8r	.	8r	.	.	.	.	.
4F\	.	.	4A\)	-fo-	4c\	.	.	8f\L	.	8a/	.	8cc\	.	.	.	.	.
.	.	.	.	.	.	.	.	8f\	.	8r	.	8r	.	.	.	.	.
4r	.	.	4G\	.	4B-\)	-fo-	.	8f\	.	8g/	.	8b-\	.	.	.	.	.
.	.	.	.	.	.	.	.	8f\J	.	8r	.	8r	.	.	.	.	.
=74	=74	=74	=74	=74	=74	=74	=74	=74	=74	=74	=74	=74	=74	=74	=74	=74	=74
4F\	.	.	4F\	-ve-	4A\	-ve-	.	8f\L	.	8f/	.	8a/	.	1r	.	1r	.
.	.	.	.	.	.	.	.	8f\	.	8r	.	8r	.	.	.	.	.
8.F\L	.	.	4B-\	-ri	4d\	-ri	.	8f\	.	8b-/	.	8dd\	.	.	.	.	.
.	.	.	.	.	.	.	.	8f\J	.	8r	.	8r	.	.	.	.	.
16G\Jk	.	.	.	.	.	.	.	.	.	.	.	.	.	.	.	.	.
8F\L	.	.	4A\	gra-	4c\	gra-	.	8f\L	.	8a/	.	8cc\	.	.	.	.	.
8E-\	.	.	.	.	.	.	.	8f\	.	8r	.	8r	.	.	.	.	.
8D\	.	.	4G\	-ti-	4en\	-ti-	.	8f\	.	8g/	.	8een\	.	.	.	.	.
8C\J	.	.	.	.	.	.	.	8f\J	.	8r	.	8r	.	.	.	.	.
=75	=75	=75	=75	=75	=75	=75	=75	=75	=75	=75	=75	=75	=75	=75	=75	=75	=75
!LO:TX:a:t=Problem: mixed beam	!	!	!	!	!	!	!	!	!	!LO:TX:a:t=Problem: forte zapisane t źródle jako for	!	!	!	!	!	!	!
!	!	!	!	!	!	!	!	!	!	!	!LO:HP:t=for	!	!	!	!	!	!
.	.	.	.	.	8qqe-/	.	.	.	.	.	.	8qqee-/	.	.	.	.	.
8BB-/L	.	.	2F\	-a	2f\	-a	.	4f\	f	2a/	f	2ff\	.	1r	.	1r	.
8B-\	.	.	.	.	.	.	.	.	.	.	.	.	.	.	.	.	.
8B-\	.	.	.	.	.	.	.	8.f\L	.	.	.	.	.	.	.	.	.
8B-\J	.	.	.	.	.	.	.	.	.	.	.	.	.	.	.	.	.
.	.	.	.	.	.	.	.	16g\Jk	.	.	.	.	.	.	.	.	.
*tremolo	*	*	*	*	*	*	*	*	*	*	*	*	*	*	*	*	*
8A\L	6	.	2r	.	2r	.	.	8f\L	.	2r	.	2r	.	.	.	.	.
8A\	.	.	.	.	.	.	.	8e-\	.	.	.	.	.	.	.	.	.
8A\	.	.	.	.	.	.	.	8d\	.	.	.	.	.	.	.	.	.
8A\J	.	.	.	.	.	.	.	8c\J	.	.	.	.	.	.	.	.	.
=76	=76	=76	=76	=76	=76	=76	=76	=76	=76	=76	=76	=76	=76	=76	=76	=76	=76
!	!	!	!LO:TX:a:t=Problem: niejasny zapis	!	!	!	!	!LO:TX:a:t=Problem:mixed beam	!	!	!	!	!	!	!	!	!
8G\L	.	.	0r	.	4B-\	Fac	.	8B-/L	.	8dd\L	.	4b-\	.	1r	.	1r	.
8G\	.	.	.	.	.	.	.	8b-\	.	8dd\	.	.	.	.	.	.	.
8G\	.	.	.	.	8.d\L	me	.	8b-\	.	8dd\	.	(16dd\LL	.	.	.	.	.
.	.	.	.	.	.	.	.	.	.	.	.	16cc\	.	.	.	.	.
8G\J	.	.	.	.	.	.	.	8b-\J	.	8dd\J	.	16dd\	.	.	.	.	.
.	.	.	.	.	16e-\Jk	.	.	.	.	.	.	16ee-\JJ)	.	.	.	.	.
!	!	!	!	!	!	!	!	!	!	!	!	!LO:TX:a:t=Problem:mixed beam	!	!	!	!	!
!	!	!	!	!	!	!	!	!	!	!	!	!LO:LB:g=original	!	!	!	!	!
8F\L	6	.	.	.	4f\	cru-	.	8a\L	.	8cc\L	.	8ff\L	.	.	.	.	.
8F\	.	.	.	.	.	.	.	8a\	.	8cc\	.	8f/	.	.	.	.	.
8F\	.	.	.	.	4F/	-ce	.	8a\	.	8cc\	.	8f/	.	.	.	.	.
8F\J	.	.	.	.	.	.	.	8a\J	.	8cc\J	.	8f/J	.	.	.	.	.
=77	=77	=77	=77	=77	=77	=77	=77	=77	=77	=77	=77	=77	=77	=77	=77	=77	=77
!	!	!	!	!	!LO:LB:g=original	!	!	!	!	!	!	!	!	!	!	!	!
8E-\L	.	.	.	.	4G/	cu-	.	8g\L	.	8b-\L	.	4g/	.	1r	.	1r	.
8E-\	.	.	.	.	.	.	.	8g\	.	8b-\	.	.	.	.	.	.	.
8E-\	9	.	.	.	8.B-\L	-sto-	.	8g\	.	8b-\	.	16b-\LL	.	.	.	.	.
.	.	.	.	.	.	.	.	.	.	.	.	16a/	.	.	.	.	.
8E-\J	.	.	.	.	.	.	.	8g\J	.	8b-\J	.	16b-\	.	.	.	.	.
.	.	.	.	.	16c\Jk	.	.	.	.	.	.	16cc\JJ	.	.	.	.	.
!	!	!	!	!	!	!	!	!	!	!	!	!LO:TX:a:t=Problem:mixed beam	!	!	!	!	!
8F\L	8	.	.	.	4d\	-di-	.	8f\L	.	8a\L	.	8dd\L	.	.	.	.	.
8F\	.	.	.	.	.	.	.	8f\	.	8a\	.	8d/	.	.	.	.	.
8F\	7	.	.	.	4D/	-ri	.	8f\	.	8a\	.	8d/	.	.	.	.	.
8F\J	.	.	.	.	.	.	.	8f\J	.	8a\J	.	8d/J	.	.	.	.	.
*Xtremolo	*	*	*	*	*	*	*	*	*	*Xtremolo	*	*	*	*	*	*	*
=78	=78	=78	=78	=78	=78	=78	=78	=78	=78	=78	=78	=78	=78	=78	=78	=78	=78
!LO:LB:g=original	!	!	!	!	!	!	!	!LO:TX:a:t=Problem:mixed beam	!	!	!	!	!	!	!	!	!
8G\L	5	.	4E-\	mor-	4E-/	mor-	.	8e-\L	.	4g/	.	4e-/	.	1r	.	1r	.
8G\	.	.	.	.	.	.	.	8G/	.	.	.	.	.	.	.	.	.
8E-\	6	.	8r	.	8r	.	.	8G/	.	8r	.	8r	.	.	.	.	.
8E-\J	.	.	8e-\	-te	8g\	-te	.	8G/J	.	8ee-\	.	8gg\	.	.	.	.	.
!LO:TX:a:t=Problem:mixed beam	!	!	!	!	!	!	!	!	!	!	!	!	!	!	!	!	!
8F\L	.	.	8e-\L	Chri-	8g\L	Chri-	.	8A/L	.	8ee-\L	.	(8gg\L	.	.	.	.	.
8F\	.	.	8d\J	.	8f\J	.	.	8A/	.	8dd\	.	8ff\)	.	.	.	.	.
8FF/	4	.	8d\L	-sti	8f\L	-sti	.	8A/	.	8dd\	.	(8ff\	.	.	.	.	.
8FF/J	3	.	8c\J	.	8e-\J	.	.	8A/J	.	8cc\J	.	8ee-\J)	.	.	.	.	.
=79	=79	=79	=79	=79	=79	=79	=79	=79	=79	=79	=79	=79	=79	=79	=79	=79	=79
.	.	.	.	.	.	.	.	.	.	.	.	16qqee-/	.	.	.	.	.
2BB-/	.	.	(4B-\	prae-	8.d\WL	pra-	.	8B-/L	.	8.b-\L	.	(8dd\L	.	1r	.	1r	.
.	.	.	.	.	.	.	.	8B-/	.	.	.	32cc\LL	.	.	.	.	.
.	.	.	.	.	.	.	.	.	.	.	.	32dd\JJJ	.	.	.	.	.
.	.	.	.	.	32c\LL	.	.	.	.	32a\LL	.	8ee-\L)	.	.	.	.	.
.	.	.	.	.	32d\JJJ	.	.	.	.	32b-\JJJ	.	.	.	.	.	.	.
!	!	!	!	!	!	!	!	!LO:TX:a:t=Problem:mixed beam	!	!	!	!	!	!	!	!	!
.	.	.	8G\	-mu-	8e-\	.	.	8e-\	.	8g/L	.	.	.	.	.	.	.
.	.	.	.	.	.	.	.	.	.	.	.	8cc\J	.	.	.	.	.
.	.	.	8E-\)	.	8c\	-mu-	.	8e-\J	.	8e-/J	.	.	.	.	.	.	.
.	.	.	.	.	.	.	.	.	.	.	.	8cc\L	.	.	.	.	.
!	!	!	!LO:LB:g=original	!	!	!	!	!	!	!LO:LB:g=original	!	!	!	!	!	!	!
2r	.	.	2F\	-ni-	8c\L	-ni-	.	8f\L	.	8e-/L	.	.	.	.	.	.	.
.	.	.	.	.	.	.	.	.	.	.	.	8b-\	.	.	.	.	.
.	.	.	.	.	8B-\	.	.	8f\	.	8d/	.	.	.	.	.	.	.
.	.	.	.	.	.	.	.	.	.	.	.	8b-\	.	.	.	.	.
!	!	!	!	!	!	!	!	!LO:TX:a:t=Problem:mixed beam	!	!	!	!	!	!	!	!	!
.	.	.	.	.	8B-\	.	.	8F/	.	8d/	.	.	.	.	.	.	.
.	.	.	.	.	.	.	.	.	.	.	.	8g\J	.	.	.	.	.
.	.	.	.	.	8A\J	.	.	8F/J	.	8c/J	.	.	.	.	.	.	.
.	.	.	.	.	.	.	.	.	.	.	.	16ryy	.	.	.	.	.
=80	=80	=80	=80	=80	=80	=80	=80	=80	=80	=80	=80	=80	=80	=80	=80	=80	=80
!	!	!	!	!	!	!	!	!	!	!LO:TX:a:t=Problem:mixed beam	!	!	!	!	!	!	!
.	.	.	.	.	8qqA/	.	.	.	.	.	.	8qqa/	.	.	.	.	.
4BB-/	7-	.	2BB-/	-ri	2B-\	-ri	.	8B-\L	.	8d/L	f	2b-\	.	1r	.	1r	.
.	.	.	.	.	.	.	.	8b-\	.	8dd\	.	.	.	.	.	.	.
4r	.	.	.	.	.	.	.	8a\	.	8cc\	.	.	.	.	.	.	.
.	.	.	.	.	.	.	.	8g\J	.	8b-\J	.	.	.	.	.	.	.
4BB-/	6 4	.	2r	.	2r	.	.	8f\L	.	8a/L	.	2r	.	.	.	.	.
.	.	.	.	.	.	.	.	8e-\	.	8g/	.	.	.	.	.	.	.
4r	.	.	.	.	.	.	.	8d\	.	8f/	.	.	.	.	.	.	.
.	.	.	.	.	.	.	.	8c\J	.	8e-/J	.	.	.	.	.	.	.
=81	=81	=81	=81	=81	=81	=81	=81	=81	=81	=81	=81	=81	=81	=81	=81	=81	=81
4BB-/	7-	.	4.A-X\	con-	4.d\	con-	.	4B-/	p	8d/L	p	8r	.	1r	.	1r	.
.	.	.	.	.	.	.	.	.	.	8b-\	.	8dd\L	.	.	.	.	.
4r	.	.	.	.	.	.	.	4r	.	8f/	.	8b-\	.	.	.	.	.
.	.	.	8A-\	-fo-	8d\	-fo-	.	.	.	8b-\J	.	8dd\J	.	.	.	.	.
4E-/	.	.	4G\	-ve-	4e-\	-ve-	.	4B-/	.	8r	.	8r	.	.	.	.	.
.	.	.	.	.	.	.	.	.	.	8b-\L	.	8ee-\L	.	.	.	.	.
4r	.	.	4G\	-ri	4e-\	-ri	.	4r	.	8g/	.	8b-\	.	.	.	.	.
.	.	.	.	.	.	.	.	.	.	8b-\J	.	8ee-\J	.	.	.	.	.
=82	=82	=82	=82	=82	=82	=82	=82	=82	=82	=82	=82	=82	=82	=82	=82	=82	=82
!	!	!	!	!	!LO:LB:g=original	!	!	!	!	!	!	!LO:LB:g=original	!	!	!	!	!
4C/	7 3n	.	4.F\	gra-	4.A-X\	gra-	.	4B-/	.	8r	.	8r	.	1r	.	1r	.
.	.	.	.	.	.	.	.	.	.	8dd\L	.	8ff\L	.	.	.	.	.
4r	.	.	.	.	.	.	.	4r	.	8b-\	.	8dd\	.	.	.	.	.
.	.	.	8F\	-ti-	8A-\	-ti-	.	.	.	8f\J	.	8a-X\J	.	.	.	.	.
4C/	6 4	.	2E-\	-a	2G\	-a	.	4e-\	.	8r	.	8r	.	.	.	.	.
.	.	.	.	.	.	.	.	.	.	8B-/L	.	8g/L	.	.	.	.	.
4r	.	.	.	.	.	.	.	4r	.	8A-X/	.	8f/	.	.	.	.	.
.	.	.	.	.	.	.	.	.	.	8G/J	.	8e-/J	.	.	.	.	.
=83	=83	=83	=83	=83	=83	=83	=83	=83	=83	=83	=83	=83	=83	=83	=83	=83	=83
4C/	7 3n	.	4.B-\	con-	4.en\	{con-	.	4c\	.	8r	.	8r	.	1r	.	1r	.
.	.	.	.	.	.	.	.	.	.	8cc\L	.	8een\L	.	.	.	.	.
4r	.	.	.	.	.	.	.	4r	.	8g\	.	8cc\	.	.	.	.	.
.	.	.	8B-\	-fo-	8e\	-fo-	.	.	.	8cc\J	.	8ee\J	.	.	.	.	.
4F/	.	.	4An\	-ve-	4f\	-ve-	.	4c\	.	8r	.	8r	.	.	.	.	.
.	.	.	.	.	.	.	.	.	.	8cc\L	.	8ff\L	.	.	.	.	.
4r	.	.	4A\	-ri	4f\	-ri	.	4r	.	8g\	.	8cc\	.	.	.	.	.
.	.	.	.	.	.	.	.	.	.	8cc\J	.	8ff\J	.	.	.	.	.
=84	=84	=84	=84	=84	=84	=84	=84	=84	=84	=84	=84	=84	=84	=84	=84	=84	=84
.	.	.	.	.	8qqc/	.	.	.	.	.	.	.	.	.	.	.	.
8r	.	.	4.G\	gra-	4.B-\	gra-	.	4c\	.	8r	.	8r	.	1r	.	1r	.
8A\L	.	.	.	.	.	.	.	.	.	8een\L	.	8gg\L	.	.	.	.	.
8c\	.	.	.	.	.	.	.	4r	.	8cc\	.	8een\	.	.	.	.	.
8B-\J	.	.	8G\	-ti-	8B-\	-ti-	.	.	.	8g\J	.	8b-\J	.	.	.	.	.
!	!	!	!	!	!	!	!	!	!	!LO:LB:g=original	!	!	!	!	!	!	!
8A\L	6 5	.	2F\	-a	2A\	-a}	.	4f\	.	8r	.	8r	.	.	.	.	.
8G\	.	.	.	.	.	.	.	.	.	8c/L	.	8a/L	.	.	.	.	.
8A\	.	.	.	.	.	.	.	4r	.	8B-/	.	8g/	.	.	.	.	.
8F\J	.	.	.	.	.	.	.	.	.	8A/J	.	8f/J	.	.	.	.	.
=85	=85	=85	=85	=85	=85	=85	=85	=85	=85	=85	=85	=85	=85	=85	=85	=85	=85
!	!	!	!LO:LB:g=original	!	!	!	!	!	!	!	!	!	!	!	!	!	!
4B-\	.	.	2c\	con-	2e-\	con-	.	8r	.	(8cc\L	.	8ee-\L	.	1r	.	1r	.
.	.	.	.	.	.	.	.	8a\L	.	8ee-\J)	.	8ccc\J	.	.	.	.	.
4BB-/	.	.	.	.	.	.	.	8cc\	.	8r	.	8r	.	.	.	.	.
.	.	.	.	.	.	.	.	8b-\J	.	8cc\	.	8ee-\	.	.	.	.	.
!	!	!	!	!	!	!	!	!LO:LB:g=original	!	!	!	!	!	!	!	!	!
4E-\	.	.	2c\	-fo-	2e-\	-fo-	.	8a\L	.	(8cc\L	.	(8ee-\L	.	.	.	.	.
.	.	.	.	.	.	.	.	8g\	.	8ee-\J)	.	8ccc\J)	.	.	.	.	.
4E-\	.	.	.	.	.	.	.	8a\	.	8r	.	8r	.	.	.	.	.
.	.	.	.	.	.	.	.	8f\J	.	8cc\	.	8ee-\	.	.	.	.	.
=86	=86	=86	=86	=86	=86	=86	=86	=86	=86	=86	=86	=86	=86	=86	=86	=86	=86
*tremolo	*	*	*	*	*	*	*	*	*	*	*	*	*	*	*	*	*
8F\L	6 4	.	4B-\	-ve-	4d\	-ve-	.	4b-\	.	8b-\L	.	8dd\'L	.	1r	.	1r	.
8F\	.	.	.	.	.	.	.	.	.	8b-\	.	(8dd\	.	.	.	.	.
8F\	.	.	8c\L	.	8e-\L	.	.	4b-\	.	8cc\	.	8ee-\	.	.	.	.	.
8F\J	.	.	8d\J	.	8f\J	.	.	.	.	8dd\J	.	8ff\J)	.	.	.	.	.
8FF/L	5 3	.	4e-\	.	4g\	.	.	4e-\	.	8ee-\L	.	8gg\'L	.	.	.	.	.
8FF/	.	.	.	.	.	.	.	.	.	8ee-\	.	(8gg\	.	.	.	.	.
8FF/	.	.	8d\L	-ri	8f\L	-ri-	.	4e-\	.	8dd\	.	8ff\	.	.	.	.	.
8FF/J	.	.	8c\J	.	8e-\J	.	.	.	.	8cc\J	.	8ee-\J)	.	.	.	.	.
=87	=87	=87	=87	=87	=87	=87	=87	=87	=87	=87	=87	=87	=87	=87	=87	=87	=87
!LO:LB:g=original	!	!	!	!	!	!	!	!	!	!	!	!LO:PB:g=original	!	!	!	!	!
4BB-/	.	.	2B-\	gra-	2d\	-gra-	.	8f\L	.	2b-\	.	2dd\	.	1r	.	1r	.
.	.	.	.	.	.	.	.	8f\	.	.	.	.	.	.	.	.	.
4r	.	.	.	.	.	.	.	8f\	.	.	.	.	.	.	.	.	.
.	.	.	.	.	.	.	.	8f\J	.	.	.	.	.	.	.	.	.
4A\	6	.	4.A\	.	4.c\	.	.	8F/L	.	2a\	.	2cc\T	.	.	.	.	.
.	.	.	.	.	.	.	.	8F/	.	.	.	.	.	.	.	.	.
4F\	.	.	.	.	.	.	.	8F/	.	.	.	.	.	.	.	.	.
.	.	.	8A\	-ti-	8c\	-ti-	.	8F/J	.	.	.	.	.	.	.	.	.
=88	=88	=88	=88	=88	=88	=88	=88	=88	=88	=88	=88	=88	=88	=88	=88	=88	=88
!	!	!	!	!	!LO:LB:g=original	!	!	!	!	!	!	!	!	!	!	!	!
4B-\	.	.	2B-\	-a	2B-\	-a	.	4B-/	.	8b-\L	.	8b-\L	.	1r	.	1r	.
.	.	.	.	.	.	.	.	.	.	8ff\	.	8ff\	.	.	.	.	.
4F\	.	.	.	.	.	.	.	4r	.	8dd\	.	8dd\	.	.	.	.	.
.	.	.	.	.	.	.	.	.	.	8b-\J	.	8b-\J	.	.	.	.	.
4A\	6	.	2r	.	4.f\	mor-	.	8f\	.	(8a\L	.	(8cc\L	.	.	.	.	.
.	.	.	.	.	.	.	.	4f\	.	8cc\J)	.	8ff\J)	.	.	.	.	.
4F\	.	.	.	.	.	.	.	.	.	8r	.	8r	.	.	.	.	.
.	.	.	.	.	8e-\	-te	.	[8f\	.	8cc\	.	8ee-\	.	.	.	.	.
=89	=89	=89	=89	=89	=89	=89	=89	=89	=89	=89	=89	=89	=89	=89	=89	=89	=89
4B-\	.	.	2r	.	8.d\L	Chri-	.	8f\]	.	(8b-\L	.	(8dd\L	.	1r	.	1r	.
.	.	.	.	.	.	.	.	4f\	.	8dd\J)	.	8ff\J)	.	.	.	.	.
.	.	.	.	.	16f\Jk	.	.	.	.	.	.	.	.	.	.	.	.
4F\	.	.	.	.	4f\	-sti	.	.	.	8r	.	8r	.	.	.	.	.
.	.	.	.	.	.	.	.	4f\	.	8b-\	.	8dd\	.	.	.	.	.
4A\	6	.	4.F\	pre-	2r	.	.	.	.	(8a\L	.	(8cc\L	.	.	.	.	.
.	.	.	.	.	.	.	.	4f\	.	8cc\J)	.	8ff\J)	.	.	.	.	.
4F\	.	.	.	.	.	.	.	.	.	8r	.	8r	.	.	.	.	.
.	.	.	8e-\	-mu-	.	.	.	[8f\	.	8cc\	.	8ee-\	.	.	.	.	.
=90	=90	=90	=90	=90	=90	=90	=90	=90	=90	=90	=90	=90	=90	=90	=90	=90	=90
!	!	!	!	!	!	!	!	!	!	!LO:LB:g=original	!	!	!	!	!	!	!
4B-\	.	.	8.d\L	-ni-	2r	.	.	8f\]	.	8b-\L	.	(8dd\L	.	1r	.	1r	.
.	.	.	.	.	.	.	.	4f\	.	8dd\J	.	8ff\J)	.	.	.	.	.
.	.	.	16B-\Jk	.	.	.	.	.	.	.	.	.	.	.	.	.	.
4G\	6	.	4B-\	-ri	.	.	.	.	.	8r	.	8r	.	.	.	.	.
.	.	.	.	.	.	.	.	4f\	.	8b-\	.	8dd\	.	.	.	.	.
4F\	6 4	.	2r	.	4.f\	pre-	.	.	.	8a\L	.	(8cc\L	.	.	.	.	.
.	.	.	.	.	.	.	.	4f\	.	8cc\J	.	8ff\J)	.	.	.	.	.
4E-\	.	.	.	.	.	.	.	.	.	8r	.	8r	.	.	.	.	.
.	.	.	.	.	8e-\	-mu-	.	8f\	.	8cc\	.	8ee-\	.	.	.	.	.
=91	=91	=91	=91	=91	=91	=91	=91	=91	=91	=91	=91	=91	=91	=91	=91	=91	=91
!	!	!	!LO:LB:g=original	!	!	!	!	!	!	!	!	!	!	!	!	!	!
8D\L	6	.	4r	.	8.d\L	-ni-	.	4f\	.	4b-\	.	4dd\	.	1r	.	1r	.
8D\	.	.	.	.	.	.	.	.	.	.	.	.	.	.	.	.	.
.	.	.	.	.	16c\Jk	.	.	.	.	.	.	.	.	.	.	.	.
8D\	.	.	(4G\	con-	4B-\	-ri	.	4g\	.	4ee-\	.	(16bb-\LL	.	.	.	.	.
.	.	.	.	.	.	.	.	.	.	.	.	16aa\	.	.	.	.	.
8D\J	.	.	.	.	.	.	.	.	.	.	.	16bb-\	.	.	.	.	.
.	.	.	.	.	.	.	.	.	.	.	.	16ccc\JJ)	.	.	.	.	.
8E-\L	.	.	4F\	.	4r	.	.	4f\	.	4dd\	.	4bb-\	.	.	.	.	.
8E-\	.	.	.	.	.	.	.	.	.	.	.	.	.	.	.	.	.
8E-\	.	.	4E-\)	-fo-	8g\	con-	.	4e-\	.	4b-\	.	4gg\	.	.	.	.	.
8E-\J	.	.	.	.	8g\	-fo-	.	.	.	.	.	.	.	.	.	.	.
=92	=92	=92	=92	=92	=92	=92	=92	=92	=92	=92	=92	=92	=92	=92	=92	=92	=92
*	*	*	*	*	*	*	*	*	*	*tremolo	*	*	*	*	*	*	*
8F\L	.	.	2D\	-ve-	4.f\W	-ve-	.	8d\L	.	8b-\L	.	4.ff\T	.	1r	.	1r	.
8F\	.	.	.	.	.	.	.	8d\	.	8b-\	.	.	.	.	.	.	.
8F\	4	.	.	.	.	.	.	8d\	.	8b-\	.	.	.	.	.	.	.
8F\J	.	.	.	.	16e-\LL	.	.	8d\J	.	8b-\J	.	16ee-\LL	.	.	.	.	.
.	.	.	.	.	16f\JJ	.	.	.	.	.	.	16ff\JJ	.	.	.	.	.
8FF/L	3	.	4E-\	-ri	8g\L	.	.	8e-\L	.	8b-\L	.	8gg\L	.	.	.	.	.
8FF/	.	.	.	.	8e-\J	.	.	8e-\	.	8g/	.	8ee-\	.	.	.	.	.
8FF/	.	.	4E-\	.	8d\L	-ri	.	8e-\	.	8f/	.	8dd\	.	.	.	.	.
8FF/J	.	.	.	.	8c\J	.	.	8e-\J	.	8e-/J	.	8cc\J	.	.	.	.	.
*Xtremolo	*	*	*	*	*	*	*	*	*	*	*	*	*	*	*	*	*
=93	=93	=93	=93	=93	=93	=93	=93	=93	=93	=93	=93	=93	=93	=93	=93	=93	=93
!	!	!	!	!	!	!	!	!	!	!	!	!LO:LB:g=original	!	!	!	!	!
4BB-/	.	.	2.F\	gra-	2B-\	gra-	.	16f\L	.	16d/LL	.	2b-\	.	1r	.	1r	.
.	.	.	.	.	.	.	.	16f\	.	16d/ 16b-/	.	.	.	.	.	.	.
.	.	.	.	.	.	.	.	16f\	.	16d/ 16b-/	.	.	.	.	.	.	.
.	.	.	.	.	.	.	.	16f\	.	16d/JJ 16b-/	.	.	.	.	.	.	.
4r	.	.	.	.	.	.	.	16f\	.	16d/LL 16b-/	.	.	.	.	.	.	.
.	.	.	.	.	.	.	.	16f\	.	16d/ 16b-/	.	.	.	.	.	.	.
.	.	.	.	.	.	.	.	16f\	.	16d/ 16b-/	.	.	.	.	.	.	.
.	.	.	.	.	.	.	.	16f\J	.	16d/JJ 16b-/	.	.	.	.	.	.	.
2r	.	.	.	.	4.c\W	-ti-	.	16f\L	.	16e-/LL 16a/	.	2cc\T	.	.	.	.	.
.	.	.	.	.	.	.	.	16f\	.	16e-/ 16a/	.	.	.	.	.	.	.
.	.	.	.	.	.	.	.	16f\	.	16e-/ 16a/	.	.	.	.	.	.	.
.	.	.	.	.	.	.	.	16f\	.	16e-/ 16a/	.	.	.	.	.	.	.
.	.	.	4F\	-ti-	.	.	.	16f\	.	16e-/ 16a/	.	.	.	.	.	.	.
.	.	.	.	.	.	.	.	16f\	.	16e-/ 16a/	.	.	.	.	.	.	.
.	.	.	.	.	8c\	.	.	16f\	.	16e-/ 16a/	.	.	.	.	.	.	.
.	.	.	.	.	.	.	.	16f\J	.	16e-/JJ 16a/	.	.	.	.	.	.	.
=94	=94	=94	=94	=94	=94	=94	=94	=94	=94	=94	=94	=94	=94	=94	=94	=94	=94
!	!	!	!	!	!LO:LB:g=original	!	!	!LO:LB:g=original	!	!	!	!	!	!	!	!	!
8AA/L	6 5	.	2BB-/	-a	2B-\	-a	.	4B-/	.	8b-\L	f	8b-\L	f	1r	.	1r	.
8AA/	.	.	.	.	.	.	.	.	.	16cc\L	.	16cc\L	.	.	.	.	.
.	.	.	.	.	.	.	.	.	.	16dd\JJ	.	16dd\JJ	.	.	.	.	.
8AA/	.	.	.	.	.	.	.	4r	.	16ee-\LL	.	16ee-\LL	.	.	.	.	.
.	.	.	.	.	.	.	.	.	.	16ff\	.	16ff\	.	.	.	.	.
8AA/J	.	.	.	.	.	.	.	.	.	16gg\	.	16gg\	.	.	.	.	.
.	.	.	.	.	.	.	.	.	.	16aa\JJ	.	16aa\JJ	.	.	.	.	.
4BB-/	.	.	2r	.	2r	.	.	2r	.	8bb-\L	.	8bb-\L	.	.	.	.	.
.	.	.	.	.	.	.	.	.	.	8ff\	.	8ff\	.	.	.	.	.
4r	.	.	.	.	.	.	.	.	.	8dd\	.	8dd\	.	.	.	.	.
.	.	.	.	.	.	.	.	.	.	8b-\J	.	8b-\J	.	.	.	.	.
=95	=95	=95	=95	=95	=95	=95	=95	=95	=95	=95	=95	=95	=95	=95	=95	=95	=95
!	!	!	!	!	!	!	!	!	!	!LO:LB:g=original	!	!	!	!	!	!	!
8E-\L	.	.	00r	.	00r	.	.	8f\L	f	16f/LL 16cc/	.	4.f/ 4.ee-/	.	2cc\	.	2ee-\	.
.	.	.	.	.	.	.	.	.	.	16f/ 16cc/	.	.	.	.	.	.	.
8E-\	.	.	.	.	.	.	.	8f\	.	16f/ 16cc/	.	.	.	.	.	.	.
.	.	.	.	.	.	.	.	.	.	16f/ 16cc/	.	.	.	.	.	.	.
8E-\	.	.	.	.	.	.	.	8f\	.	16f/ 16cc/	.	.	.	.	.	.	.
.	.	.	.	.	.	.	.	.	.	16f/ 16cc/	.	.	.	.	.	.	.
8E-\J	.	.	.	.	.	.	.	8f\J	.	16f/ 16cc/	.	24cc\LL	.	.	.	.	.
.	.	.	.	.	.	.	.	.	.	.	.	24dd\	.	.	.	.	.
.	.	.	.	.	.	.	.	.	.	16f/JJ 16cc/	.	.	.	.	.	.	.
.	.	.	.	.	.	.	.	.	.	.	.	24ee-\JJ	.	.	.	.	.
4D\	6	.	.	.	.	.	.	4f\	.	4f/ 4b-/	.	8dd\'L	.	4b-\	.	4dd\	.
.	.	.	.	.	.	.	.	.	.	.	.	(8dd\	.	.	.	.	.
4r	.	.	.	.	.	.	.	4r	.	4r	.	8cc\	.	4r	.	4r	.
.	.	.	.	.	.	.	.	.	.	.	.	8b-\J)	.	.	.	.	.
=96	=96	=96	=96	=96	=96	=96	=96	=96	=96	=96	=96	=96	=96	=96	=96	=96	=96
*tremolo	*	*	*	*	*	*	*	*	*	*	*	*	*	*	*	*	*
8E-\L	6	.	.	.	.	.	.	8e-\L	.	16d/LL 16b-/	.	4.gg\	.	2b-\	.	2gg\	.
.	.	.	.	.	.	.	.	.	.	16d/ 16b-/	.	.	.	.	.	.	.
8E-\	.	.	.	.	.	.	.	8e-\	.	16d/ 16b-/	.	.	.	.	.	.	.
.	.	.	.	.	.	.	.	.	.	16d/ 16b-/	.	.	.	.	.	.	.
8E-\	.	.	.	.	.	.	.	8e-\	.	16d/ 16b-/	.	.	.	.	.	.	.
.	.	.	.	.	.	.	.	.	.	16d/ 16b-/	.	.	.	.	.	.	.
8E-\J	.	.	.	.	.	.	.	8e-\J	.	16d/ 16b-/	.	(24bb-\LL	.	.	.	.	.
.	.	.	.	.	.	.	.	.	.	.	.	24aa\	.	.	.	.	.
.	.	.	.	.	.	.	.	.	.	16d/JJ 16b-/	.	.	.	.	.	.	.
.	.	.	.	.	.	.	.	.	.	.	.	24gg\JJ)	.	.	.	.	.
8E-\L	5	.	.	.	.	.	.	4d\	.	4d/ 4b-/	.	8ff\'L	.	4b-\	.	4ff\	.
8E-\	.	.	.	.	.	.	.	.	.	.	.	(8ff\	.	.	.	.	.
8E-\	.	.	.	.	.	.	.	4r	.	4r	.	8ee-\	.	4r	.	4r	.
8E-\J	.	.	.	.	.	.	.	.	.	.	.	8dd\J)	.	.	.	.	.
*	*	*	*	*	*	*	*	*	*	*Xtremolo	*	*	*	*	*	*	*
=97	=97	=97	=97	=97	=97	=97	=97	=97	=97	=97	=97	=97	=97	=97	=97	=97	=97
!LO:LB:g=original	!	!	!	!	!	!	!	!	!	!	!	!	!	!	!	!LO:TX:a:t=2	!
4F\	.	.	.	.	.	.	.	8g\L	.	16cc\LL	.	(16cc\LL	.	0r	.	0r	.
.	.	.	.	.	.	.	.	.	.	16dd\	.	16dd\	.	.	.	.	.
.	.	.	.	.	.	.	.	8g\	.	16cc\	.	16cc\)	.	.	.	.	.
.	.	.	.	.	.	.	.	.	.	16bn\JJ	.	16bn\'JJ	.	.	.	.	.
8r	.	.	.	.	.	.	.	8g\	.	16cc\LL	.	(16cc\LL	.	.	.	.	.
.	.	.	.	.	.	.	.	.	.	16dd\	.	16dd\	.	.	.	.	.
8F\	.	.	.	.	.	.	.	8g\J	.	16ee-\	.	16ee-\)	.	.	.	.	.
.	.	.	.	.	.	.	.	.	.	16ff\JJ	.	16ff\'JJ	.	.	.	.	.
!	!	!	!	!	!	!	!	!	!	!	!	!LO:LB:g=original	!	!	!	!	!
8F\L	.	.	.	.	.	.	.	8g\L	.	8gg\L	.	8gg\L	.	.	.	.	.
8E-\	.	.	.	.	.	.	.	8g\	.	8ee-\	.	8ee-\	.	.	.	.	.
8D\	.	.	.	.	.	.	.	8g\	.	8cc\	.	8cc\	.	.	.	.	.
8C\J	.	.	.	.	.	.	.	8g\J	.	8b\J	.	8b\J	.	.	.	.	.
=98	=98	=98	=98	=98	=98	=98	=98	=98	=98	=98	=98	=98	=98	=98	=98	=98	=98
.	.	.	.	.	.	.	.	.	.	.	.	8qqa/	.	.	.	.	.
4BB-/	.	.	.	.	.	.	.	4f\	.	4a/	.	4ff\	.	.	.	.	.
4BB-/	.	.	.	.	.	.	.	8.f\L	.	8.A/L	.	8.f/L	.	.	.	.	.
.	.	.	.	.	.	.	.	16f\Jk	.	16A/Jk	.	16f/Jk	.	.	.	.	.
2r	.	.	.	.	.	.	.	8f\L	.	4A/	.	4f/	.	.	.	.	.
.	.	.	.	.	.	.	.	8e-\	.	.	.	.	.	.	.	.	.
.	.	.	.	.	.	.	.	8d\	.	4r	.	4r	.	.	.	.	.
.	.	.	.	.	.	.	.	8c\J	.	.	.	.	.	.	.	.	.
=99	=99	=99	=99	=99	=99	=99	=99	=99	=99	=99	=99	=99	=99	=99	=99	=99	=99
4F\	7	.	00r	.	00r	.	.	4B-/	.	8r	p	8r	p	4.dd\	.	4.ff\	.
.	.	.	.	.	.	.	.	.	.	(8B-/L	.	(8d/L	.	.	.	.	.
4r	.	.	.	.	.	.	.	4B-/	.	8d/)	.	8f/	.	.	.	.	.
.	.	.	.	.	.	.	.	.	.	8c'/J	.	8e-/J)	.	8cc\	.	8ff\	.
4r	.	.	.	.	.	.	.	2r	.	8B-/L	.	8d/'L	.	4b-\	.	4dd\	.
.	.	.	.	.	.	.	.	.	.	8c/	.	8e-/'	.	.	.	.	.
4F\	.	.	.	.	.	.	.	.	.	8d/	.	8f/'	.	4r	.	4r	.
.	.	.	.	.	.	.	.	.	.	8B-/J	.	8d/J	.	.	.	.	.
=100	=100	=100	=100	=100	=100	=100	=100	=100	=100	=100	=100	=100	=100	=100	=100	=100	=100
!	!	!	!	!	!	!	!	!	!	!LO:LB:g=original	!	!	!LO:HP:t=for	!	!	!	!
!	!	!	!	!	!	!	!	!	!	!	!	!LO:TX:a:t=Problem:mixed beam	!	!	!	!	!
4B-\	.	.	.	.	.	.	.	4f\	p	8c/'L	f	8e-/L	f	1cc\T	.	1ee-\T	.
.	.	.	.	.	.	.	.	.	.	8cc\'	.	8ee-\'	.	.	.	.	.
4BB-/	.	.	.	.	.	.	.	4r	.	8a/'	.	8cc\'	.	.	.	.	.
.	.	.	.	.	.	.	.	.	.	8f/'J	.	8a\'J	.	.	.	.	.
2r	.	.	.	.	.	.	.	4r	.	8a/'L	.	8cc\'L	.	.	.	.	.
.	.	.	.	.	.	.	.	.	.	8f/'	.	8a/	.	.	.	.	.
.	.	.	.	.	.	.	.	4F/	.	8A/'	.	8f/'	.	.	.	.	.
.	.	.	.	.	.	.	.	.	.	8c/'J	.	8e-/'J	.	.	.	.	.
=101	=101	=101	=101	=101	=101	=101	=101	=101	=101	=101	=101	=101	=101	=101	=101	=101	=101
!	!	!	!	!	!	!	!	!	!LO:HP:t=fo	!	!	!	!	!	!	!	!
4F\	.	.	.	.	.	.	.	4B-/	f	8B-/'L	p	8d/'L	p	8b-\	.	8dd\	.
.	.	.	.	.	.	.	.	.	.	8B-/'	.	(8d/	.	4dd\	.	4ff\	.
4r	.	.	.	.	.	.	.	4B-/	.	8d/'	.	8f/	.	.	.	.	.
.	.	.	.	.	.	.	.	.	.	8c/'J	.	8e-/J)	.	8cc\	.	8ee-\	.
4r	.	.	.	.	.	.	.	2r	.	8B-/L	.	8d/L	.	4b-\	.	4dd\	.
.	.	.	.	.	.	.	.	.	.	8c/	.	8e-/	.	.	.	.	.
4F\	.	.	.	.	.	.	.	.	.	8d/	.	8f/	.	4r	.	4r	.
.	.	.	.	.	.	.	.	.	.	8B-/J	.	8d/J	.	.	.	.	.
=102	=102	=102	=102	=102	=102	=102	=102	=102	=102	=102	=102	=102	=102	=102	=102	=102	=102
!	!	!	!	!	!	!	!	!	!	!	!	!	!LO:HP:t=for	!	!	!LO:LB:g=original	!
!	!	!	!	!	!	!	!	!	!	!	!	!LO:TX:a:t=Problem:mixed beam	!	!	!	!	!
4B-\	.	.	.	.	.	.	.	4f\	p	8c/'L	f	8e-/L	f	1cc\T	.	1ee-\T	.
.	.	.	.	.	.	.	.	.	.	8cc\'	.	8ee-\	.	.	.	.	.
4BB-/	.	.	.	.	.	.	.	4r	.	8a/'	.	8cc\	.	.	.	.	.
.	.	.	.	.	.	.	.	.	.	8f/'J	.	8a\J	.	.	.	.	.
!	!	!	!	!	!	!	!	!	!	!	!	!LO:LB:g=original	!	!	!	!	!
2r	.	.	.	.	.	.	.	4r	.	8a/'L	.	8cc\'L	.	.	.	.	.
.	.	.	.	.	.	.	.	.	.	8f/'	.	8a\	.	.	.	.	.
.	.	.	.	.	.	.	.	4F/	.	8A/'	.	8f\'	.	.	.	.	.
.	.	.	.	.	.	.	.	.	.	8c/'J	.	8e-\'J	.	.	.	.	.
=103	=103	=103	=103	=103	=103	=103	=103	=103	=103	=103	=103	=103	=103	=103	=103	=103	=103
!	!	!	!	!	!	!	!	!	!LO:HP:t=fo	!	!	!	!LO:HP:t=for	!LO:LB:g=original	!	!	!
8D\L	6	.	00r	.	00r	.	.	4B-/	f	16B-/LL	.	16d/LL	f	4b-\	.	4dd\	.
.	.	.	.	.	.	.	.	.	.	16f/	.	16f/	.	.	.	.	.
8D\	.	.	.	.	.	.	.	.	.	16g/	.	16g/	.	.	.	.	.
.	.	.	.	.	.	.	.	.	.	16a/JJ	.	16a/JJ	.	.	.	.	.
8D\	.	.	.	.	.	.	.	4B-/	.	16b-\LL	.	16b-\LL	.	4r	.	4r	.
.	.	.	.	.	.	.	.	.	.	16cc\	.	16cc\	.	.	.	.	.
8D\J	.	.	.	.	.	.	.	.	.	16dd\	.	16dd\	.	.	.	.	.
.	.	.	.	.	.	.	.	.	.	16ee-\JJ	.	16ee-\JJ	.	.	.	.	.
*Xtremolo	*	*	*	*	*	*	*	*	*	*	*	*	*	*	*	*	*
8E-\L	.	.	.	.	.	.	.	2r	.	16ff\LL	.	16ff\LL	.	2r	.	2r	.
.	.	.	.	.	.	.	.	.	.	16b-\	.	16b-\	.	.	.	.	.
8E-\	9	.	.	.	.	.	.	.	.	16cc\	.	16cc\	.	.	.	.	.
.	.	.	.	.	.	.	.	.	.	16dd\JJ	.	16dd\JJ	.	.	.	.	.
8A\	8	.	.	.	.	.	.	.	.	16ee-\LL	.	16ee-\LL	.	.	.	.	.
.	.	.	.	.	.	.	.	.	.	16ff\	.	16ff\	.	.	.	.	.
8A\J	7	.	.	.	.	.	.	.	.	16gg\	.	16gg\	.	.	.	.	.
.	.	.	.	.	.	.	.	.	.	16aa\JJ	.	16aa\JJ	.	.	.	.	.
=104	=104	=104	=104	=104	=104	=104	=104	=104	=104	=104	=104	=104	=104	=104	=104	=104	=104
!	!	!	!	!	!	!	!	!LO:LB:g=original	!	!LO:LB:g=original	!	!	!	!	!	!	!
8B-\L	.	.	.	.	.	.	.	8b-\L	f	8bb-\L	.	8bb-\L	.	1r	.	1r	.
8B-\	.	.	.	.	.	.	.	8b-\	.	8ff\	.	8ff\	.	.	.	.	.
8E-\	.	.	.	.	.	.	.	8b-\	.	8ff\	.	8ff\	.	.	.	.	.
8E-\J	.	.	.	.	.	.	.	8b-\J	.	8ff\J	.	8ff\J	.	.	.	.	.
!LO:TX:a:t=Problem: mixed beam	!	!	!	!	!	!	!	!	!	!	!	!	!	!	!	!	!
*	*	*	*	*	*	*	*	*Xtremolo	*	*	*	*	*	*	*	*	*
8F\L	6 4	.	.	.	.	.	.	8b-\L	.	8ff#X\	.	(8ff#X\	.	.	.	.	.
8F\	5 3	.	.	.	.	.	.	8b-\	.	4gg\	.	4gg\)	.	.	.	.	.
8FF/	.	.	.	.	.	.	.	8cc\	.	.	.	.	.	.	.	.	.
8FF/J	.	.	.	.	.	.	.	8cc\J	.	16ffn\LL	.	16ffn\LL	.	.	.	.	.
.	.	.	.	.	.	.	.	.	.	16ee-\JJ	.	16ee-\JJ	.	.	.	.	.
=105	=105	=105	=105	=105	=105	=105	=105	=105	=105	=105	=105	=105	=105	=105	=105	=105	=105
*tremolo	*	*	*	*	*	*	*	*	*	*	*	*	*	*	*	*	*
8BB-/L	.	.	.	.	.	.	.	8f\L	.	8.dd\tL	.	8.dd\tL	.	8.b-\L	.	8.dd\L	.
8BB-/	.	.	.	.	.	.	.	8f\	.	.	.	.	.	.	.	.	.
.	.	.	.	.	.	.	.	.	.	(32cc\LL	.	32cc\LL	.	32a\LL	.	32cc\LL	.
.	.	.	.	.	.	.	.	.	.	32dd\JJJ)	.	32dd\JJJ	.	32b-\JJJ	.	32dd\JJJ	.
8BB-/	.	.	.	.	.	.	.	8g\	.	8ee-\L	.	8ee-\L	.	8g/L	.	8ee-\L	.
8BB-/J	.	.	.	.	.	.	.	8e-\J	.	8cc\J	.	8cc\J	.	8e-/J	.	8cc\J	.
8E-\L	.	.	.	.	.	.	.	8d\L	.	4b-\	.	4b-\	.	4d/	.	4b-\	.
8E-\	.	.	.	.	.	.	.	8d\	.	.	.	.	.	.	.	.	.
8E-\	.	.	.	.	.	.	.	8c\	.	4a\	.	4a\	.	4e-/	.	4a/	.
8E-\J	.	.	.	.	.	.	.	8c\J	.	.	.	.	.	.	.	.	.
=106	=106	=106	=106	=106	=106	=106	=106	=106	=106	=106	=106	=106	=106	=106	=106	=106	=106
!LO:TX:a:t=problem:repetycja tt.106	!	!	!	!	!	!	!	!	!	!	!	!	!	!	!	!	!
!	!	!	!	!	!	!	!	!	!	!	!	!LO:LB:g=original	!	!	!	!	!
*	*	*	*	*	*	*	*	*tremolo	*	*	*	*	*	*	*	*	*
8E-\L	.	.	.	.	.	.	.	8d\L	.	8b-\L	.	8b-\L	.	2d/	.	2b-\	.
8E-\	.	.	.	.	.	.	.	8d\	.	16cc\L	.	16cc\L	.	.	.	.	.
.	.	.	.	.	.	.	.	.	.	16dd\JJ	.	16dd\JJ	.	.	.	.	.
8E-\	.	.	.	.	.	.	.	8d\	.	16ee-\LL	.	16ee-\LL	.	.	.	.	.
.	.	.	.	.	.	.	.	.	.	16ff\	.	16ff\	.	.	.	.	.
8E-\J	.	.	.	.	.	.	.	8d\J	.	16gg\	.	16gg\	.	.	.	.	.
.	.	.	.	.	.	.	.	.	.	16aa\JJ	.	16aa\JJ	.	.	.	.	.
*Xtremolo	*	*	*	*	*	*	*	*	*	*	*	*	*	*	*	*	*
!LO:LB:g=original	!	!	!	!	!	!	!	!	!	!LO:TX:a:t=Problem:mixed beam	!	!	!	!	!	!	!
8D\L	6	.	.	.	.	.	.	8d\L	.	8bb-\L	.	8bb-\L	.	2r	.	2r	.
8D\	.	.	.	.	.	.	.	8d\	.	8f/	.	8ff\	.	.	.	.	.
8E-\	.	.	.	.	.	.	.	8d\	.	8f/	.	8ff\	.	.	.	.	.
8E-\J	.	.	.	.	.	.	.	8d\J	.	8f/J	.	8ff\J	.	.	.	.	.
=107	=107	=107	=107	=107	=107	=107	=107	=107	=107	=107	=107	=107	=107	=107	=107	=107	=107
!	!	!	!	!	!	!	!	!LO:TX:a:t=problem:zbędna repetycja t.107	!	!	!	!	!	!	!	!	!
*tremolo	*	*	*	*	*	*	*	*	*	*	*	*	*	*	*	*	*
8E-\L	.	.	0r	.	0r	.	.	8e-\L	.	8f#X/L	.	8ff#X\L	.	1r	.	1r	.
8E-\	.	.	.	.	.	.	.	8e-\	.	8g/J	.	8gg\J	.	.	.	.	.
8E-\	.	.	.	.	.	.	.	8e-\	.	8r	.	8r	.	.	.	.	.
8E-\J	.	.	.	.	.	.	.	8e-\J	.	8g/	.	8gg\	.	.	.	.	.
*Xtremolo	*	*	*	*	*	*	*	*Xtremolo	*	*	*	*	*	*	*	*	*
!LO:LB:g=original	!	!	!	!	!	!	!	!	!	!	!	!	!	!	!	!	!
8D\L	6	.	.	.	.	.	.	8d\L	.	8fn/L	.	8ffn\L	.	.	.	.	.
8D\	.	.	.	.	.	.	.	8d\	.	8b-\J	.	8bb-\J	.	.	.	.	.
8E-\	.	.	.	.	.	.	.	8e-\	.	16a/LL	.	(16aa\LL	.	.	.	.	.
.	.	.	.	.	.	.	.	.	.	16g/	.	16gg\	.	.	.	.	.
8E-\J	.	.	.	.	.	.	.	8e-\J	.	16f/	.	16ff\)	.	.	.	.	.
.	.	.	.	.	.	.	.	.	.	16e-/JJ	.	16ee-\JJ	.	.	.	.	.
=108	=108	=108	=108	=108	=108	=108	=108	=108	=108	=108	=108	=108	=108	=108	=108	=108	=108
!	!	!	!	!	!	!	!	!	!	!LO:LB:g=original	!	!	!	!	!	!	!
*tremolo	*	*	*	*	*	*	*	*tremolo	*	*	*	*	*	*	*	*	*
8F\L	6 4	.	.	.	.	.	.	16f\LL	.	16d/LL	.	2dd\	.	2b-\	.	2dd\	.
.	.	.	.	.	.	.	.	16f\	.	16b-\	.	.	.	.	.	.	.
8F\	.	.	.	.	.	.	.	16f\	.	16b-\	.	.	.	.	.	.	.
.	.	.	.	.	.	.	.	16f\	.	16b-\JJ	.	.	.	.	.	.	.
*	*	*	*	*	*	*	*	*	*	*tremolo	*	*	*	*	*	*	*
8F\	.	.	.	.	.	.	.	16f\	.	16b-/LL	.	.	.	.	.	.	.
.	.	.	.	.	.	.	.	16f\	.	16b-/	.	.	.	.	.	.	.
8F\J	.	.	.	.	.	.	.	16f\	.	16b-/	.	.	.	.	.	.	.
.	.	.	.	.	.	.	.	16f\JJ	.	16b-/JJ	.	.	.	.	.	.	.
8FF/L	5 3	.	.	.	.	.	.	16f\LL	.	16a/LL	.	2cc\T	.	2a\	.	2cc\T	.
.	.	.	.	.	.	.	.	16f\	.	16a/	.	.	.	.	.	.	.
8FF/	.	.	.	.	.	.	.	16f\	.	16a/	.	.	.	.	.	.	.
.	.	.	.	.	.	.	.	16f\	.	16a/	.	.	.	.	.	.	.
8FF/	.	.	.	.	.	.	.	16f\	.	16a/	.	.	.	.	.	.	.
.	.	.	.	.	.	.	.	16f\	.	16a/	.	.	.	.	.	.	.
8FF/J	.	.	.	.	.	.	.	16f\	.	16a/	.	.	.	.	.	.	.
.	.	.	.	.	.	.	.	16f\JJ	.	16a/JJ	.	.	.	.	.	.	.
*Xtremolo	*	*	*	*	*	*	*	*Xtremolo	*	*Xtremolo	*	*	*	*	*	*	*
=109	=109	=109	=109	=109	=109	=109	=109	=109	=109	=109	=109	=109	=109	=109	=109	=109	=109
!	!	!	!	!	!	!	!	!	!	!	!	!	!	!	!LO:HP:t=for	!	!
4BB-/	.	.	1r	.	1r	.	.	4f\	.	4b-\	.	4b-\	.	4b-\	f	4b-\	.
4BB-/	.	.	.	.	.	.	.	4f\	.	4d/ 4b-/	.	4f/ 4dd/	.	4f\	.	4dd\	.
4BB-/	.	.	.	.	.	.	.	4f\	.	4d/ 4b-/	.	4d/ 4b-/	.	4d\	.	4b-\	.
4r	.	.	.	.	.	.	.	4r	.	4r	.	4r	.	4r	.	4r	.
==	==	==	==	==	==	==	==	==	==	==	==	==	==	==	==	==	==
*-	*-	*-	*-	*-	*-	*-	*-	*-	*-	*-	*-	*-	*-	*-	*-	*-	*-
!!!system-decoration: g1,g2,g3,g4
!!!ENC: Anna Matuszewska
!!!END: 2020-04-17
